(Generated by PartKam Version 0.05)

G20 G90 G40

(profile 1)
G0 Z0.5
T0 M6
G17
M3
G0 X13.5363 Y16.2901
G1 Z-0.1 F30
G3 X13.4862 Y16.2801 I0 J-0.1309 F10
G3 X13.4437 Y16.2517 I0.0501 J-0.1209
G3 X13.4154 Y16.2093 I0.0926 J-0.0926
G3 X13.4054 Y16.1592 I0.1209 J-0.0501
G3 X13.4154 Y16.1091 I0.1309 J0
G3 X13.4437 Y16.0666 I0.1209 J0.0501
G3 X13.4862 Y16.0382 I0.0926 J0.0926
G3 X13.5363 Y16.0283 I0.0501 J0.1209
G3 X13.5864 Y16.0382 I0 J0.1309
G3 X13.6289 Y16.0666 I-0.0501 J0.1209
G3 X13.6572 Y16.1091 I-0.0926 J0.0926
G3 X13.6672 Y16.1592 I-0.1209 J0.0501
G3 X13.6572 Y16.2093 I-0.1309 J0
G3 X13.6289 Y16.2517 I-0.1209 J-0.0501
G3 X13.5864 Y16.2801 I-0.0926 J-0.0926
G3 X13.5363 Y16.2901 I-0.0501 J-0.1209
G1 Z-0.2 F30
G3 X13.4862 Y16.2801 I0 J-0.1309 F10
G3 X13.4437 Y16.2517 I0.0501 J-0.1209
G3 X13.4154 Y16.2093 I0.0926 J-0.0926
G3 X13.4054 Y16.1592 I0.1209 J-0.0501
G3 X13.4154 Y16.1091 I0.1309 J0
G3 X13.4437 Y16.0666 I0.1209 J0.0501
G3 X13.4862 Y16.0382 I0.0926 J0.0926
G3 X13.5363 Y16.0283 I0.0501 J0.1209
G3 X13.5864 Y16.0382 I0 J0.1309
G3 X13.6289 Y16.0666 I-0.0501 J0.1209
G3 X13.6572 Y16.1091 I-0.0926 J0.0926
G3 X13.6672 Y16.1592 I-0.1209 J0.0501
G3 X13.6572 Y16.2093 I-0.1309 J0
G3 X13.6289 Y16.2517 I-0.1209 J-0.0501
G3 X13.5864 Y16.2801 I-0.0926 J-0.0926
G3 X13.5363 Y16.2901 I-0.0501 J-0.1209
G1 Z-0.3 F30
G3 X13.4862 Y16.2801 I0 J-0.1309 F10
G3 X13.4437 Y16.2517 I0.0501 J-0.1209
G3 X13.4154 Y16.2093 I0.0926 J-0.0926
G3 X13.4054 Y16.1592 I0.1209 J-0.0501
G3 X13.4154 Y16.1091 I0.1309 J0
G3 X13.4437 Y16.0666 I0.1209 J0.0501
G3 X13.4862 Y16.0382 I0.0926 J0.0926
G3 X13.5363 Y16.0283 I0.0501 J0.1209
G3 X13.5864 Y16.0382 I0 J0.1309
G3 X13.6289 Y16.0666 I-0.0501 J0.1209
G3 X13.6572 Y16.1091 I-0.0926 J0.0926
G3 X13.6672 Y16.1592 I-0.1209 J0.0501
G3 X13.6572 Y16.2093 I-0.1309 J0
G3 X13.6289 Y16.2517 I-0.1209 J-0.0501
G3 X13.5864 Y16.2801 I-0.0926 J-0.0926
G3 X13.5363 Y16.2901 I-0.0501 J-0.1209
G1 Z-0.4 F30
G3 X13.4862 Y16.2801 I0 J-0.1309 F10
G3 X13.4437 Y16.2517 I0.0501 J-0.1209
G3 X13.4154 Y16.2093 I0.0926 J-0.0926
G3 X13.4054 Y16.1592 I0.1209 J-0.0501
G3 X13.4154 Y16.1091 I0.1309 J0
G3 X13.4437 Y16.0666 I0.1209 J0.0501
G3 X13.4862 Y16.0382 I0.0926 J0.0926
G3 X13.5363 Y16.0283 I0.0501 J0.1209
G3 X13.5864 Y16.0382 I0 J0.1309
G3 X13.6289 Y16.0666 I-0.0501 J0.1209
G3 X13.6572 Y16.1091 I-0.0926 J0.0926
G3 X13.6672 Y16.1592 I-0.1209 J0.0501
G3 X13.6572 Y16.2093 I-0.1309 J0
G3 X13.6289 Y16.2517 I-0.1209 J-0.0501
G3 X13.5864 Y16.2801 I-0.0926 J-0.0926
G3 X13.5363 Y16.2901 I-0.0501 J-0.1209
G1 Z-0.5 F30
G3 X13.4862 Y16.2801 I0 J-0.1309 F10
G3 X13.4437 Y16.2517 I0.0501 J-0.1209
G3 X13.4154 Y16.2093 I0.0926 J-0.0926
G3 X13.4054 Y16.1592 I0.1209 J-0.0501
G3 X13.4154 Y16.1091 I0.1309 J0
G3 X13.4437 Y16.0666 I0.1209 J0.0501
G3 X13.4862 Y16.0382 I0.0926 J0.0926
G3 X13.5363 Y16.0283 I0.0501 J0.1209
G3 X13.5864 Y16.0382 I0 J0.1309
G3 X13.6289 Y16.0666 I-0.0501 J0.1209
G3 X13.6572 Y16.1091 I-0.0926 J0.0926
G3 X13.6672 Y16.1592 I-0.1209 J0.0501
G3 X13.6572 Y16.2093 I-0.1309 J0
G3 X13.6289 Y16.2517 I-0.1209 J-0.0501
G3 X13.5864 Y16.2801 I-0.0926 J-0.0926
G3 X13.5363 Y16.2901 I-0.0501 J-0.1209
G1 Z-0.6 F30
G3 X13.4862 Y16.2801 I0 J-0.1309 F10
G3 X13.4437 Y16.2517 I0.0501 J-0.1209
G3 X13.4154 Y16.2093 I0.0926 J-0.0926
G3 X13.4054 Y16.1592 I0.1209 J-0.0501
G3 X13.4154 Y16.1091 I0.1309 J0
G3 X13.4437 Y16.0666 I0.1209 J0.0501
G3 X13.4862 Y16.0382 I0.0926 J0.0926
G3 X13.5363 Y16.0283 I0.0501 J0.1209
G3 X13.5864 Y16.0382 I0 J0.1309
G3 X13.6289 Y16.0666 I-0.0501 J0.1209
G3 X13.6572 Y16.1091 I-0.0926 J0.0926
G3 X13.6672 Y16.1592 I-0.1209 J0.0501
G3 X13.6572 Y16.2093 I-0.1309 J0
G3 X13.6289 Y16.2517 I-0.1209 J-0.0501
G3 X13.5864 Y16.2801 I-0.0926 J-0.0926
G3 X13.5363 Y16.2901 I-0.0501 J-0.1209
G1 Z-0.7 F30
G3 X13.4862 Y16.2801 I0 J-0.1309 F10
G3 X13.4437 Y16.2517 I0.0501 J-0.1209
G3 X13.4154 Y16.2093 I0.0926 J-0.0926
G3 X13.4054 Y16.1592 I0.1209 J-0.0501
G3 X13.4154 Y16.1091 I0.1309 J0
G3 X13.4437 Y16.0666 I0.1209 J0.0501
G3 X13.4862 Y16.0382 I0.0926 J0.0926
G3 X13.5363 Y16.0283 I0.0501 J0.1209
G3 X13.5864 Y16.0382 I0 J0.1309
G3 X13.6289 Y16.0666 I-0.0501 J0.1209
G3 X13.6572 Y16.1091 I-0.0926 J0.0926
G3 X13.6672 Y16.1592 I-0.1209 J0.0501
G3 X13.6572 Y16.2093 I-0.1309 J0
G3 X13.6289 Y16.2517 I-0.1209 J-0.0501
G3 X13.5864 Y16.2801 I-0.0926 J-0.0926
G3 X13.5363 Y16.2901 I-0.0501 J-0.1209
G1 Z-0.8 F30
G3 X13.4862 Y16.2801 I0 J-0.1309 F10
G3 X13.4437 Y16.2517 I0.0501 J-0.1209
G3 X13.4154 Y16.2093 I0.0926 J-0.0926
G3 X13.4054 Y16.1592 I0.1209 J-0.0501
G3 X13.4154 Y16.1091 I0.1309 J0
G3 X13.4437 Y16.0666 I0.1209 J0.0501
G3 X13.4862 Y16.0382 I0.0926 J0.0926
G3 X13.5363 Y16.0283 I0.0501 J0.1209
G3 X13.5864 Y16.0382 I0 J0.1309
G3 X13.6289 Y16.0666 I-0.0501 J0.1209
G3 X13.6572 Y16.1091 I-0.0926 J0.0926
G3 X13.6672 Y16.1592 I-0.1209 J0.0501
G3 X13.6572 Y16.2093 I-0.1309 J0
G3 X13.6289 Y16.2517 I-0.1209 J-0.0501
G3 X13.5864 Y16.2801 I-0.0926 J-0.0926
G3 X13.5363 Y16.2901 I-0.0501 J-0.1209
G0 Z0.5
G0 X7.68 Y7.4473
G1 Z-0.1 F30
G3 X7.7225 Y7.4189 I0.0926 J0.0926 F10
G3 X7.7726 Y7.409 I0.0501 J0.1209
G3 X7.8227 Y7.4189 I0 J0.1309
G3 X7.8651 Y7.4473 I-0.0501 J0.1209
G3 X7.8935 Y7.4898 I-0.0926 J0.0926
G3 X7.9035 Y7.5399 I-0.1209 J0.0501
G3 X7.8935 Y7.59 I-0.1309 J0
G3 X7.8651 Y7.6325 I-0.1209 J-0.0501
G3 X7.8227 Y7.6608 I-0.0926 J-0.0926
G3 X7.7726 Y7.6708 I-0.0501 J-0.1209
G3 X7.7225 Y7.6608 I0 J-0.1309
G3 X7.68 Y7.6325 I0.0501 J-0.1209
G3 X7.6516 Y7.59 I0.0926 J-0.0926
G3 X7.6416 Y7.5399 I0.1209 J-0.0501
G3 X7.6516 Y7.4898 I0.1309 J0
G3 X7.68 Y7.4473 I0.1209 J0.0501
G1 Z-0.2 F30
G3 X7.7225 Y7.4189 I0.0926 J0.0926 F10
G3 X7.7726 Y7.409 I0.0501 J0.1209
G3 X7.8227 Y7.4189 I0 J0.1309
G3 X7.8651 Y7.4473 I-0.0501 J0.1209
G3 X7.8935 Y7.4898 I-0.0926 J0.0926
G3 X7.9035 Y7.5399 I-0.1209 J0.0501
G3 X7.8935 Y7.59 I-0.1309 J0
G3 X7.8651 Y7.6325 I-0.1209 J-0.0501
G3 X7.8227 Y7.6608 I-0.0926 J-0.0926
G3 X7.7726 Y7.6708 I-0.0501 J-0.1209
G3 X7.7225 Y7.6608 I0 J-0.1309
G3 X7.68 Y7.6325 I0.0501 J-0.1209
G3 X7.6516 Y7.59 I0.0926 J-0.0926
G3 X7.6416 Y7.5399 I0.1209 J-0.0501
G3 X7.6516 Y7.4898 I0.1309 J0
G3 X7.68 Y7.4473 I0.1209 J0.0501
G1 Z-0.3 F30
G3 X7.7225 Y7.4189 I0.0926 J0.0926 F10
G3 X7.7726 Y7.409 I0.0501 J0.1209
G3 X7.8227 Y7.4189 I0 J0.1309
G3 X7.8651 Y7.4473 I-0.0501 J0.1209
G3 X7.8935 Y7.4898 I-0.0926 J0.0926
G3 X7.9035 Y7.5399 I-0.1209 J0.0501
G3 X7.8935 Y7.59 I-0.1309 J0
G3 X7.8651 Y7.6325 I-0.1209 J-0.0501
G3 X7.8227 Y7.6608 I-0.0926 J-0.0926
G3 X7.7726 Y7.6708 I-0.0501 J-0.1209
G3 X7.7225 Y7.6608 I0 J-0.1309
G3 X7.68 Y7.6325 I0.0501 J-0.1209
G3 X7.6516 Y7.59 I0.0926 J-0.0926
G3 X7.6416 Y7.5399 I0.1209 J-0.0501
G3 X7.6516 Y7.4898 I0.1309 J0
G3 X7.68 Y7.4473 I0.1209 J0.0501
G1 Z-0.4 F30
G3 X7.7225 Y7.4189 I0.0926 J0.0926 F10
G3 X7.7726 Y7.409 I0.0501 J0.1209
G3 X7.8227 Y7.4189 I0 J0.1309
G3 X7.8651 Y7.4473 I-0.0501 J0.1209
G3 X7.8935 Y7.4898 I-0.0926 J0.0926
G3 X7.9035 Y7.5399 I-0.1209 J0.0501
G3 X7.8935 Y7.59 I-0.1309 J0
G3 X7.8651 Y7.6325 I-0.1209 J-0.0501
G3 X7.8227 Y7.6608 I-0.0926 J-0.0926
G3 X7.7726 Y7.6708 I-0.0501 J-0.1209
G3 X7.7225 Y7.6608 I0 J-0.1309
G3 X7.68 Y7.6325 I0.0501 J-0.1209
G3 X7.6516 Y7.59 I0.0926 J-0.0926
G3 X7.6416 Y7.5399 I0.1209 J-0.0501
G3 X7.6516 Y7.4898 I0.1309 J0
G3 X7.68 Y7.4473 I0.1209 J0.0501
G1 Z-0.5 F30
G3 X7.7225 Y7.4189 I0.0926 J0.0926 F10
G3 X7.7726 Y7.409 I0.0501 J0.1209
G3 X7.8227 Y7.4189 I0 J0.1309
G3 X7.8651 Y7.4473 I-0.0501 J0.1209
G3 X7.8935 Y7.4898 I-0.0926 J0.0926
G3 X7.9035 Y7.5399 I-0.1209 J0.0501
G3 X7.8935 Y7.59 I-0.1309 J0
G3 X7.8651 Y7.6325 I-0.1209 J-0.0501
G3 X7.8227 Y7.6608 I-0.0926 J-0.0926
G3 X7.7726 Y7.6708 I-0.0501 J-0.1209
G3 X7.7225 Y7.6608 I0 J-0.1309
G3 X7.68 Y7.6325 I0.0501 J-0.1209
G3 X7.6516 Y7.59 I0.0926 J-0.0926
G3 X7.6416 Y7.5399 I0.1209 J-0.0501
G3 X7.6516 Y7.4898 I0.1309 J0
G3 X7.68 Y7.4473 I0.1209 J0.0501
G1 Z-0.6 F30
G3 X7.7225 Y7.4189 I0.0926 J0.0926 F10
G3 X7.7726 Y7.409 I0.0501 J0.1209
G3 X7.8227 Y7.4189 I0 J0.1309
G3 X7.8651 Y7.4473 I-0.0501 J0.1209
G3 X7.8935 Y7.4898 I-0.0926 J0.0926
G3 X7.9035 Y7.5399 I-0.1209 J0.0501
G3 X7.8935 Y7.59 I-0.1309 J0
G3 X7.8651 Y7.6325 I-0.1209 J-0.0501
G3 X7.8227 Y7.6608 I-0.0926 J-0.0926
G3 X7.7726 Y7.6708 I-0.0501 J-0.1209
G3 X7.7225 Y7.6608 I0 J-0.1309
G3 X7.68 Y7.6325 I0.0501 J-0.1209
G3 X7.6516 Y7.59 I0.0926 J-0.0926
G3 X7.6416 Y7.5399 I0.1209 J-0.0501
G3 X7.6516 Y7.4898 I0.1309 J0
G3 X7.68 Y7.4473 I0.1209 J0.0501
G1 Z-0.7 F30
G3 X7.7225 Y7.4189 I0.0926 J0.0926 F10
G3 X7.7726 Y7.409 I0.0501 J0.1209
G3 X7.8227 Y7.4189 I0 J0.1309
G3 X7.8651 Y7.4473 I-0.0501 J0.1209
G3 X7.8935 Y7.4898 I-0.0926 J0.0926
G3 X7.9035 Y7.5399 I-0.1209 J0.0501
G3 X7.8935 Y7.59 I-0.1309 J0
G3 X7.8651 Y7.6325 I-0.1209 J-0.0501
G3 X7.8227 Y7.6608 I-0.0926 J-0.0926
G3 X7.7726 Y7.6708 I-0.0501 J-0.1209
G3 X7.7225 Y7.6608 I0 J-0.1309
G3 X7.68 Y7.6325 I0.0501 J-0.1209
G3 X7.6516 Y7.59 I0.0926 J-0.0926
G3 X7.6416 Y7.5399 I0.1209 J-0.0501
G3 X7.6516 Y7.4898 I0.1309 J0
G3 X7.68 Y7.4473 I0.1209 J0.0501
G1 Z-0.8 F30
G3 X7.7225 Y7.4189 I0.0926 J0.0926 F10
G3 X7.7726 Y7.409 I0.0501 J0.1209
G3 X7.8227 Y7.4189 I0 J0.1309
G3 X7.8651 Y7.4473 I-0.0501 J0.1209
G3 X7.8935 Y7.4898 I-0.0926 J0.0926
G3 X7.9035 Y7.5399 I-0.1209 J0.0501
G3 X7.8935 Y7.59 I-0.1309 J0
G3 X7.8651 Y7.6325 I-0.1209 J-0.0501
G3 X7.8227 Y7.6608 I-0.0926 J-0.0926
G3 X7.7726 Y7.6708 I-0.0501 J-0.1209
G3 X7.7225 Y7.6608 I0 J-0.1309
G3 X7.68 Y7.6325 I0.0501 J-0.1209
G3 X7.6516 Y7.59 I0.0926 J-0.0926
G3 X7.6416 Y7.5399 I0.1209 J-0.0501
G3 X7.6516 Y7.4898 I0.1309 J0
G3 X7.68 Y7.4473 I0.1209 J0.0501
G0 Z0.5
G0 X19.4059 Y7.4629
G1 Z-0.1 F30
G3 X19.4245 Y7.4994 I-0.1059 J0.0769 F10
G3 X19.4309 Y7.5399 I-0.1245 J0.0405
G1 X19.4309 Y7.5399
G1 X19.4309 Y7.5399
G3 X19.4245 Y7.5803 I-0.1309 J0
G3 X19.4059 Y7.6168 I-0.1245 J-0.0405
G3 X19.377 Y7.6458 I-0.1059 J-0.0769
G3 X19.3405 Y7.6644 I-0.0769 J-0.1059
G3 X19.3 Y7.6708 I-0.0405 J-0.1245
G3 X19.2596 Y7.6644 I0 J-0.1309
G3 X19.2231 Y7.6458 I0.0405 J-0.1245
G3 X19.1941 Y7.6168 I0.0769 J-0.1059
G3 X19.1755 Y7.5803 I0.1059 J-0.0769
G3 X19.1691 Y7.5399 I0.1245 J-0.0405
G1 X19.1691 Y7.5399
G1 X19.1691 Y7.5399
G3 X19.1755 Y7.4994 I0.1309 J0
G3 X19.1941 Y7.4629 I0.1245 J0.0405
G3 X19.2231 Y7.434 I0.1059 J0.0769
G3 X19.2596 Y7.4154 I0.0769 J0.1059
G3 X19.3 Y7.409 I0.0405 J0.1245
G3 X19.3405 Y7.4154 I0 J0.1309
G3 X19.377 Y7.434 I-0.0405 J0.1245
G3 X19.4059 Y7.4629 I-0.0769 J0.1059
G1 Z-0.2 F30
G3 X19.4245 Y7.4994 I-0.1059 J0.0769 F10
G3 X19.4309 Y7.5399 I-0.1245 J0.0405
G1 X19.4309 Y7.5399
G1 X19.4309 Y7.5399
G3 X19.4245 Y7.5803 I-0.1309 J0
G3 X19.4059 Y7.6168 I-0.1245 J-0.0405
G3 X19.377 Y7.6458 I-0.1059 J-0.0769
G3 X19.3405 Y7.6644 I-0.0769 J-0.1059
G3 X19.3 Y7.6708 I-0.0405 J-0.1245
G3 X19.2596 Y7.6644 I0 J-0.1309
G3 X19.2231 Y7.6458 I0.0405 J-0.1245
G3 X19.1941 Y7.6168 I0.0769 J-0.1059
G3 X19.1755 Y7.5803 I0.1059 J-0.0769
G3 X19.1691 Y7.5399 I0.1245 J-0.0405
G1 X19.1691 Y7.5399
G1 X19.1691 Y7.5399
G3 X19.1755 Y7.4994 I0.1309 J0
G3 X19.1941 Y7.4629 I0.1245 J0.0405
G3 X19.2231 Y7.434 I0.1059 J0.0769
G3 X19.2596 Y7.4154 I0.0769 J0.1059
G3 X19.3 Y7.409 I0.0405 J0.1245
G3 X19.3405 Y7.4154 I0 J0.1309
G3 X19.377 Y7.434 I-0.0405 J0.1245
G3 X19.4059 Y7.4629 I-0.0769 J0.1059
G1 Z-0.3 F30
G3 X19.4245 Y7.4994 I-0.1059 J0.0769 F10
G3 X19.4309 Y7.5399 I-0.1245 J0.0405
G1 X19.4309 Y7.5399
G1 X19.4309 Y7.5399
G3 X19.4245 Y7.5803 I-0.1309 J0
G3 X19.4059 Y7.6168 I-0.1245 J-0.0405
G3 X19.377 Y7.6458 I-0.1059 J-0.0769
G3 X19.3405 Y7.6644 I-0.0769 J-0.1059
G3 X19.3 Y7.6708 I-0.0405 J-0.1245
G3 X19.2596 Y7.6644 I0 J-0.1309
G3 X19.2231 Y7.6458 I0.0405 J-0.1245
G3 X19.1941 Y7.6168 I0.0769 J-0.1059
G3 X19.1755 Y7.5803 I0.1059 J-0.0769
G3 X19.1691 Y7.5399 I0.1245 J-0.0405
G1 X19.1691 Y7.5399
G1 X19.1691 Y7.5399
G3 X19.1755 Y7.4994 I0.1309 J0
G3 X19.1941 Y7.4629 I0.1245 J0.0405
G3 X19.2231 Y7.434 I0.1059 J0.0769
G3 X19.2596 Y7.4154 I0.0769 J0.1059
G3 X19.3 Y7.409 I0.0405 J0.1245
G3 X19.3405 Y7.4154 I0 J0.1309
G3 X19.377 Y7.434 I-0.0405 J0.1245
G3 X19.4059 Y7.4629 I-0.0769 J0.1059
G1 Z-0.4 F30
G3 X19.4245 Y7.4994 I-0.1059 J0.0769 F10
G3 X19.4309 Y7.5399 I-0.1245 J0.0405
G1 X19.4309 Y7.5399
G1 X19.4309 Y7.5399
G3 X19.4245 Y7.5803 I-0.1309 J0
G3 X19.4059 Y7.6168 I-0.1245 J-0.0405
G3 X19.377 Y7.6458 I-0.1059 J-0.0769
G3 X19.3405 Y7.6644 I-0.0769 J-0.1059
G3 X19.3 Y7.6708 I-0.0405 J-0.1245
G3 X19.2596 Y7.6644 I0 J-0.1309
G3 X19.2231 Y7.6458 I0.0405 J-0.1245
G3 X19.1941 Y7.6168 I0.0769 J-0.1059
G3 X19.1755 Y7.5803 I0.1059 J-0.0769
G3 X19.1691 Y7.5399 I0.1245 J-0.0405
G1 X19.1691 Y7.5399
G1 X19.1691 Y7.5399
G3 X19.1755 Y7.4994 I0.1309 J0
G3 X19.1941 Y7.4629 I0.1245 J0.0405
G3 X19.2231 Y7.434 I0.1059 J0.0769
G3 X19.2596 Y7.4154 I0.0769 J0.1059
G3 X19.3 Y7.409 I0.0405 J0.1245
G3 X19.3405 Y7.4154 I0 J0.1309
G3 X19.377 Y7.434 I-0.0405 J0.1245
G3 X19.4059 Y7.4629 I-0.0769 J0.1059
G1 Z-0.5 F30
G3 X19.4245 Y7.4994 I-0.1059 J0.0769 F10
G3 X19.4309 Y7.5399 I-0.1245 J0.0405
G1 X19.4309 Y7.5399
G1 X19.4309 Y7.5399
G3 X19.4245 Y7.5803 I-0.1309 J0
G3 X19.4059 Y7.6168 I-0.1245 J-0.0405
G3 X19.377 Y7.6458 I-0.1059 J-0.0769
G3 X19.3405 Y7.6644 I-0.0769 J-0.1059
G3 X19.3 Y7.6708 I-0.0405 J-0.1245
G3 X19.2596 Y7.6644 I0 J-0.1309
G3 X19.2231 Y7.6458 I0.0405 J-0.1245
G3 X19.1941 Y7.6168 I0.0769 J-0.1059
G3 X19.1755 Y7.5803 I0.1059 J-0.0769
G3 X19.1691 Y7.5399 I0.1245 J-0.0405
G1 X19.1691 Y7.5399
G1 X19.1691 Y7.5399
G3 X19.1755 Y7.4994 I0.1309 J0
G3 X19.1941 Y7.4629 I0.1245 J0.0405
G3 X19.2231 Y7.434 I0.1059 J0.0769
G3 X19.2596 Y7.4154 I0.0769 J0.1059
G3 X19.3 Y7.409 I0.0405 J0.1245
G3 X19.3405 Y7.4154 I0 J0.1309
G3 X19.377 Y7.434 I-0.0405 J0.1245
G3 X19.4059 Y7.4629 I-0.0769 J0.1059
G1 Z-0.6 F30
G3 X19.4245 Y7.4994 I-0.1059 J0.0769 F10
G3 X19.4309 Y7.5399 I-0.1245 J0.0405
G1 X19.4309 Y7.5399
G1 X19.4309 Y7.5399
G3 X19.4245 Y7.5803 I-0.1309 J0
G3 X19.4059 Y7.6168 I-0.1245 J-0.0405
G3 X19.377 Y7.6458 I-0.1059 J-0.0769
G3 X19.3405 Y7.6644 I-0.0769 J-0.1059
G3 X19.3 Y7.6708 I-0.0405 J-0.1245
G3 X19.2596 Y7.6644 I0 J-0.1309
G3 X19.2231 Y7.6458 I0.0405 J-0.1245
G3 X19.1941 Y7.6168 I0.0769 J-0.1059
G3 X19.1755 Y7.5803 I0.1059 J-0.0769
G3 X19.1691 Y7.5399 I0.1245 J-0.0405
G1 X19.1691 Y7.5399
G1 X19.1691 Y7.5399
G3 X19.1755 Y7.4994 I0.1309 J0
G3 X19.1941 Y7.4629 I0.1245 J0.0405
G3 X19.2231 Y7.434 I0.1059 J0.0769
G3 X19.2596 Y7.4154 I0.0769 J0.1059
G3 X19.3 Y7.409 I0.0405 J0.1245
G3 X19.3405 Y7.4154 I0 J0.1309
G3 X19.377 Y7.434 I-0.0405 J0.1245
G3 X19.4059 Y7.4629 I-0.0769 J0.1059
G1 Z-0.7 F30
G3 X19.4245 Y7.4994 I-0.1059 J0.0769 F10
G3 X19.4309 Y7.5399 I-0.1245 J0.0405
G1 X19.4309 Y7.5399
G1 X19.4309 Y7.5399
G3 X19.4245 Y7.5803 I-0.1309 J0
G3 X19.4059 Y7.6168 I-0.1245 J-0.0405
G3 X19.377 Y7.6458 I-0.1059 J-0.0769
G3 X19.3405 Y7.6644 I-0.0769 J-0.1059
G3 X19.3 Y7.6708 I-0.0405 J-0.1245
G3 X19.2596 Y7.6644 I0 J-0.1309
G3 X19.2231 Y7.6458 I0.0405 J-0.1245
G3 X19.1941 Y7.6168 I0.0769 J-0.1059
G3 X19.1755 Y7.5803 I0.1059 J-0.0769
G3 X19.1691 Y7.5399 I0.1245 J-0.0405
G1 X19.1691 Y7.5399
G1 X19.1691 Y7.5399
G3 X19.1755 Y7.4994 I0.1309 J0
G3 X19.1941 Y7.4629 I0.1245 J0.0405
G3 X19.2231 Y7.434 I0.1059 J0.0769
G3 X19.2596 Y7.4154 I0.0769 J0.1059
G3 X19.3 Y7.409 I0.0405 J0.1245
G3 X19.3405 Y7.4154 I0 J0.1309
G3 X19.377 Y7.434 I-0.0405 J0.1245
G3 X19.4059 Y7.4629 I-0.0769 J0.1059
G1 Z-0.8 F30
G3 X19.4245 Y7.4994 I-0.1059 J0.0769 F10
G3 X19.4309 Y7.5399 I-0.1245 J0.0405
G1 X19.4309 Y7.5399
G1 X19.4309 Y7.5399
G3 X19.4245 Y7.5803 I-0.1309 J0
G3 X19.4059 Y7.6168 I-0.1245 J-0.0405
G3 X19.377 Y7.6458 I-0.1059 J-0.0769
G3 X19.3405 Y7.6644 I-0.0769 J-0.1059
G3 X19.3 Y7.6708 I-0.0405 J-0.1245
G3 X19.2596 Y7.6644 I0 J-0.1309
G3 X19.2231 Y7.6458 I0.0405 J-0.1245
G3 X19.1941 Y7.6168 I0.0769 J-0.1059
G3 X19.1755 Y7.5803 I0.1059 J-0.0769
G3 X19.1691 Y7.5399 I0.1245 J-0.0405
G1 X19.1691 Y7.5399
G1 X19.1691 Y7.5399
G3 X19.1755 Y7.4994 I0.1309 J0
G3 X19.1941 Y7.4629 I0.1245 J0.0405
G3 X19.2231 Y7.434 I0.1059 J0.0769
G3 X19.2596 Y7.4154 I0.0769 J0.1059
G3 X19.3 Y7.409 I0.0405 J0.1245
G3 X19.3405 Y7.4154 I0 J0.1309
G3 X19.377 Y7.434 I-0.0405 J0.1245
G3 X19.4059 Y7.4629 I-0.0769 J0.1059
G0 Z0.5
G0 X26.5568 Y3.1702
G1 Z-0.1 F30
G3 X26.5572 Y3.1683 I0.005 J0 F10
G3 X26.5583 Y3.1666 I0.0046 J0.0019
G3 X26.5599 Y3.1656 I0.0035 J0.0035
G3 X26.5618 Y3.1652 I0.0019 J0.0046
G3 X26.5637 Y3.1656 I0 J0.005
G3 X26.5653 Y3.1666 I-0.0019 J0.0046
G3 X26.5664 Y3.1683 I-0.0035 J0.0035
G3 X26.5668 Y3.1702 I-0.0046 J0.0019
G3 X26.5664 Y3.1721 I-0.005 J0
G3 X26.5653 Y3.1737 I-0.0046 J-0.0019
G3 X26.5637 Y3.1748 I-0.0035 J-0.0035
G3 X26.5618 Y3.1752 I-0.0019 J-0.0046
G3 X26.5599 Y3.1748 I0 J-0.005
G3 X26.5583 Y3.1737 I0.0019 J-0.0046
G3 X26.5572 Y3.1721 I0.0035 J-0.0035
G3 X26.5568 Y3.1702 I0.0046 J-0.0019
G1 Z-0.2 F30
G3 X26.5572 Y3.1683 I0.005 J0 F10
G3 X26.5583 Y3.1666 I0.0046 J0.0019
G3 X26.5599 Y3.1656 I0.0035 J0.0035
G3 X26.5618 Y3.1652 I0.0019 J0.0046
G3 X26.5637 Y3.1656 I0 J0.005
G3 X26.5653 Y3.1666 I-0.0019 J0.0046
G3 X26.5664 Y3.1683 I-0.0035 J0.0035
G3 X26.5668 Y3.1702 I-0.0046 J0.0019
G3 X26.5664 Y3.1721 I-0.005 J0
G3 X26.5653 Y3.1737 I-0.0046 J-0.0019
G3 X26.5637 Y3.1748 I-0.0035 J-0.0035
G3 X26.5618 Y3.1752 I-0.0019 J-0.0046
G3 X26.5599 Y3.1748 I0 J-0.005
G3 X26.5583 Y3.1737 I0.0019 J-0.0046
G3 X26.5572 Y3.1721 I0.0035 J-0.0035
G3 X26.5568 Y3.1702 I0.0046 J-0.0019
G1 Z-0.3 F30
G3 X26.5572 Y3.1683 I0.005 J0 F10
G3 X26.5583 Y3.1666 I0.0046 J0.0019
G3 X26.5599 Y3.1656 I0.0035 J0.0035
G3 X26.5618 Y3.1652 I0.0019 J0.0046
G3 X26.5637 Y3.1656 I0 J0.005
G3 X26.5653 Y3.1666 I-0.0019 J0.0046
G3 X26.5664 Y3.1683 I-0.0035 J0.0035
G3 X26.5668 Y3.1702 I-0.0046 J0.0019
G3 X26.5664 Y3.1721 I-0.005 J0
G3 X26.5653 Y3.1737 I-0.0046 J-0.0019
G3 X26.5637 Y3.1748 I-0.0035 J-0.0035
G3 X26.5618 Y3.1752 I-0.0019 J-0.0046
G3 X26.5599 Y3.1748 I0 J-0.005
G3 X26.5583 Y3.1737 I0.0019 J-0.0046
G3 X26.5572 Y3.1721 I0.0035 J-0.0035
G3 X26.5568 Y3.1702 I0.0046 J-0.0019
G1 Z-0.4 F30
G3 X26.5572 Y3.1683 I0.005 J0 F10
G3 X26.5583 Y3.1666 I0.0046 J0.0019
G3 X26.5599 Y3.1656 I0.0035 J0.0035
G3 X26.5618 Y3.1652 I0.0019 J0.0046
G3 X26.5637 Y3.1656 I0 J0.005
G3 X26.5653 Y3.1666 I-0.0019 J0.0046
G3 X26.5664 Y3.1683 I-0.0035 J0.0035
G3 X26.5668 Y3.1702 I-0.0046 J0.0019
G3 X26.5664 Y3.1721 I-0.005 J0
G3 X26.5653 Y3.1737 I-0.0046 J-0.0019
G3 X26.5637 Y3.1748 I-0.0035 J-0.0035
G3 X26.5618 Y3.1752 I-0.0019 J-0.0046
G3 X26.5599 Y3.1748 I0 J-0.005
G3 X26.5583 Y3.1737 I0.0019 J-0.0046
G3 X26.5572 Y3.1721 I0.0035 J-0.0035
G3 X26.5568 Y3.1702 I0.0046 J-0.0019
G1 Z-0.5 F30
G3 X26.5572 Y3.1683 I0.005 J0 F10
G3 X26.5583 Y3.1666 I0.0046 J0.0019
G3 X26.5599 Y3.1656 I0.0035 J0.0035
G3 X26.5618 Y3.1652 I0.0019 J0.0046
G3 X26.5637 Y3.1656 I0 J0.005
G3 X26.5653 Y3.1666 I-0.0019 J0.0046
G3 X26.5664 Y3.1683 I-0.0035 J0.0035
G3 X26.5668 Y3.1702 I-0.0046 J0.0019
G3 X26.5664 Y3.1721 I-0.005 J0
G3 X26.5653 Y3.1737 I-0.0046 J-0.0019
G3 X26.5637 Y3.1748 I-0.0035 J-0.0035
G3 X26.5618 Y3.1752 I-0.0019 J-0.0046
G3 X26.5599 Y3.1748 I0 J-0.005
G3 X26.5583 Y3.1737 I0.0019 J-0.0046
G3 X26.5572 Y3.1721 I0.0035 J-0.0035
G3 X26.5568 Y3.1702 I0.0046 J-0.0019
G1 Z-0.6 F30
G3 X26.5572 Y3.1683 I0.005 J0 F10
G3 X26.5583 Y3.1666 I0.0046 J0.0019
G3 X26.5599 Y3.1656 I0.0035 J0.0035
G3 X26.5618 Y3.1652 I0.0019 J0.0046
G3 X26.5637 Y3.1656 I0 J0.005
G3 X26.5653 Y3.1666 I-0.0019 J0.0046
G3 X26.5664 Y3.1683 I-0.0035 J0.0035
G3 X26.5668 Y3.1702 I-0.0046 J0.0019
G3 X26.5664 Y3.1721 I-0.005 J0
G3 X26.5653 Y3.1737 I-0.0046 J-0.0019
G3 X26.5637 Y3.1748 I-0.0035 J-0.0035
G3 X26.5618 Y3.1752 I-0.0019 J-0.0046
G3 X26.5599 Y3.1748 I0 J-0.005
G3 X26.5583 Y3.1737 I0.0019 J-0.0046
G3 X26.5572 Y3.1721 I0.0035 J-0.0035
G3 X26.5568 Y3.1702 I0.0046 J-0.0019
G1 Z-0.7 F30
G3 X26.5572 Y3.1683 I0.005 J0 F10
G3 X26.5583 Y3.1666 I0.0046 J0.0019
G3 X26.5599 Y3.1656 I0.0035 J0.0035
G3 X26.5618 Y3.1652 I0.0019 J0.0046
G3 X26.5637 Y3.1656 I0 J0.005
G3 X26.5653 Y3.1666 I-0.0019 J0.0046
G3 X26.5664 Y3.1683 I-0.0035 J0.0035
G3 X26.5668 Y3.1702 I-0.0046 J0.0019
G3 X26.5664 Y3.1721 I-0.005 J0
G3 X26.5653 Y3.1737 I-0.0046 J-0.0019
G3 X26.5637 Y3.1748 I-0.0035 J-0.0035
G3 X26.5618 Y3.1752 I-0.0019 J-0.0046
G3 X26.5599 Y3.1748 I0 J-0.005
G3 X26.5583 Y3.1737 I0.0019 J-0.0046
G3 X26.5572 Y3.1721 I0.0035 J-0.0035
G3 X26.5568 Y3.1702 I0.0046 J-0.0019
G1 Z-0.8 F30
G3 X26.5572 Y3.1683 I0.005 J0 F10
G3 X26.5583 Y3.1666 I0.0046 J0.0019
G3 X26.5599 Y3.1656 I0.0035 J0.0035
G3 X26.5618 Y3.1652 I0.0019 J0.0046
G3 X26.5637 Y3.1656 I0 J0.005
G3 X26.5653 Y3.1666 I-0.0019 J0.0046
G3 X26.5664 Y3.1683 I-0.0035 J0.0035
G3 X26.5668 Y3.1702 I-0.0046 J0.0019
G3 X26.5664 Y3.1721 I-0.005 J0
G3 X26.5653 Y3.1737 I-0.0046 J-0.0019
G3 X26.5637 Y3.1748 I-0.0035 J-0.0035
G3 X26.5618 Y3.1752 I-0.0019 J-0.0046
G3 X26.5599 Y3.1748 I0 J-0.005
G3 X26.5583 Y3.1737 I0.0019 J-0.0046
G3 X26.5572 Y3.1721 I0.0035 J-0.0035
G3 X26.5568 Y3.1702 I0.0046 J-0.0019
G0 Z0.5
G0 X26.5373 Y1.7483
G1 Z-0.1 F30
G3 X26.5377 Y1.7464 I0.005 J0 F10
G3 X26.5388 Y1.7448 I0.0046 J0.0019
G3 X26.5404 Y1.7437 I0.0035 J0.0035
G3 X26.5423 Y1.7433 I0.0019 J0.0046
G3 X26.5442 Y1.7437 I0 J0.005
G3 X26.5459 Y1.7448 I-0.0019 J0.0046
G3 X26.5469 Y1.7464 I-0.0035 J0.0035
G3 X26.5473 Y1.7483 I-0.0046 J0.0019
G3 X26.5469 Y1.7502 I-0.005 J0
G3 X26.5459 Y1.7519 I-0.0046 J-0.0019
G3 X26.5442 Y1.753 I-0.0035 J-0.0035
G3 X26.5423 Y1.7533 I-0.0019 J-0.0046
G3 X26.5404 Y1.753 I0 J-0.005
G3 X26.5388 Y1.7519 I0.0019 J-0.0046
G3 X26.5377 Y1.7502 I0.0035 J-0.0035
G3 X26.5373 Y1.7483 I0.0046 J-0.0019
G1 Z-0.2 F30
G3 X26.5377 Y1.7464 I0.005 J0 F10
G3 X26.5388 Y1.7448 I0.0046 J0.0019
G3 X26.5404 Y1.7437 I0.0035 J0.0035
G3 X26.5423 Y1.7433 I0.0019 J0.0046
G3 X26.5442 Y1.7437 I0 J0.005
G3 X26.5459 Y1.7448 I-0.0019 J0.0046
G3 X26.5469 Y1.7464 I-0.0035 J0.0035
G3 X26.5473 Y1.7483 I-0.0046 J0.0019
G3 X26.5469 Y1.7502 I-0.005 J0
G3 X26.5459 Y1.7519 I-0.0046 J-0.0019
G3 X26.5442 Y1.753 I-0.0035 J-0.0035
G3 X26.5423 Y1.7533 I-0.0019 J-0.0046
G3 X26.5404 Y1.753 I0 J-0.005
G3 X26.5388 Y1.7519 I0.0019 J-0.0046
G3 X26.5377 Y1.7502 I0.0035 J-0.0035
G3 X26.5373 Y1.7483 I0.0046 J-0.0019
G1 Z-0.3 F30
G3 X26.5377 Y1.7464 I0.005 J0 F10
G3 X26.5388 Y1.7448 I0.0046 J0.0019
G3 X26.5404 Y1.7437 I0.0035 J0.0035
G3 X26.5423 Y1.7433 I0.0019 J0.0046
G3 X26.5442 Y1.7437 I0 J0.005
G3 X26.5459 Y1.7448 I-0.0019 J0.0046
G3 X26.5469 Y1.7464 I-0.0035 J0.0035
G3 X26.5473 Y1.7483 I-0.0046 J0.0019
G3 X26.5469 Y1.7502 I-0.005 J0
G3 X26.5459 Y1.7519 I-0.0046 J-0.0019
G3 X26.5442 Y1.753 I-0.0035 J-0.0035
G3 X26.5423 Y1.7533 I-0.0019 J-0.0046
G3 X26.5404 Y1.753 I0 J-0.005
G3 X26.5388 Y1.7519 I0.0019 J-0.0046
G3 X26.5377 Y1.7502 I0.0035 J-0.0035
G3 X26.5373 Y1.7483 I0.0046 J-0.0019
G1 Z-0.4 F30
G3 X26.5377 Y1.7464 I0.005 J0 F10
G3 X26.5388 Y1.7448 I0.0046 J0.0019
G3 X26.5404 Y1.7437 I0.0035 J0.0035
G3 X26.5423 Y1.7433 I0.0019 J0.0046
G3 X26.5442 Y1.7437 I0 J0.005
G3 X26.5459 Y1.7448 I-0.0019 J0.0046
G3 X26.5469 Y1.7464 I-0.0035 J0.0035
G3 X26.5473 Y1.7483 I-0.0046 J0.0019
G3 X26.5469 Y1.7502 I-0.005 J0
G3 X26.5459 Y1.7519 I-0.0046 J-0.0019
G3 X26.5442 Y1.753 I-0.0035 J-0.0035
G3 X26.5423 Y1.7533 I-0.0019 J-0.0046
G3 X26.5404 Y1.753 I0 J-0.005
G3 X26.5388 Y1.7519 I0.0019 J-0.0046
G3 X26.5377 Y1.7502 I0.0035 J-0.0035
G3 X26.5373 Y1.7483 I0.0046 J-0.0019
G1 Z-0.5 F30
G3 X26.5377 Y1.7464 I0.005 J0 F10
G3 X26.5388 Y1.7448 I0.0046 J0.0019
G3 X26.5404 Y1.7437 I0.0035 J0.0035
G3 X26.5423 Y1.7433 I0.0019 J0.0046
G3 X26.5442 Y1.7437 I0 J0.005
G3 X26.5459 Y1.7448 I-0.0019 J0.0046
G3 X26.5469 Y1.7464 I-0.0035 J0.0035
G3 X26.5473 Y1.7483 I-0.0046 J0.0019
G3 X26.5469 Y1.7502 I-0.005 J0
G3 X26.5459 Y1.7519 I-0.0046 J-0.0019
G3 X26.5442 Y1.753 I-0.0035 J-0.0035
G3 X26.5423 Y1.7533 I-0.0019 J-0.0046
G3 X26.5404 Y1.753 I0 J-0.005
G3 X26.5388 Y1.7519 I0.0019 J-0.0046
G3 X26.5377 Y1.7502 I0.0035 J-0.0035
G3 X26.5373 Y1.7483 I0.0046 J-0.0019
G1 Z-0.6 F30
G3 X26.5377 Y1.7464 I0.005 J0 F10
G3 X26.5388 Y1.7448 I0.0046 J0.0019
G3 X26.5404 Y1.7437 I0.0035 J0.0035
G3 X26.5423 Y1.7433 I0.0019 J0.0046
G3 X26.5442 Y1.7437 I0 J0.005
G3 X26.5459 Y1.7448 I-0.0019 J0.0046
G3 X26.5469 Y1.7464 I-0.0035 J0.0035
G3 X26.5473 Y1.7483 I-0.0046 J0.0019
G3 X26.5469 Y1.7502 I-0.005 J0
G3 X26.5459 Y1.7519 I-0.0046 J-0.0019
G3 X26.5442 Y1.753 I-0.0035 J-0.0035
G3 X26.5423 Y1.7533 I-0.0019 J-0.0046
G3 X26.5404 Y1.753 I0 J-0.005
G3 X26.5388 Y1.7519 I0.0019 J-0.0046
G3 X26.5377 Y1.7502 I0.0035 J-0.0035
G3 X26.5373 Y1.7483 I0.0046 J-0.0019
G1 Z-0.7 F30
G3 X26.5377 Y1.7464 I0.005 J0 F10
G3 X26.5388 Y1.7448 I0.0046 J0.0019
G3 X26.5404 Y1.7437 I0.0035 J0.0035
G3 X26.5423 Y1.7433 I0.0019 J0.0046
G3 X26.5442 Y1.7437 I0 J0.005
G3 X26.5459 Y1.7448 I-0.0019 J0.0046
G3 X26.5469 Y1.7464 I-0.0035 J0.0035
G3 X26.5473 Y1.7483 I-0.0046 J0.0019
G3 X26.5469 Y1.7502 I-0.005 J0
G3 X26.5459 Y1.7519 I-0.0046 J-0.0019
G3 X26.5442 Y1.753 I-0.0035 J-0.0035
G3 X26.5423 Y1.7533 I-0.0019 J-0.0046
G3 X26.5404 Y1.753 I0 J-0.005
G3 X26.5388 Y1.7519 I0.0019 J-0.0046
G3 X26.5377 Y1.7502 I0.0035 J-0.0035
G3 X26.5373 Y1.7483 I0.0046 J-0.0019
G1 Z-0.8 F30
G3 X26.5377 Y1.7464 I0.005 J0 F10
G3 X26.5388 Y1.7448 I0.0046 J0.0019
G3 X26.5404 Y1.7437 I0.0035 J0.0035
G3 X26.5423 Y1.7433 I0.0019 J0.0046
G3 X26.5442 Y1.7437 I0 J0.005
G3 X26.5459 Y1.7448 I-0.0019 J0.0046
G3 X26.5469 Y1.7464 I-0.0035 J0.0035
G3 X26.5473 Y1.7483 I-0.0046 J0.0019
G3 X26.5469 Y1.7502 I-0.005 J0
G3 X26.5459 Y1.7519 I-0.0046 J-0.0019
G3 X26.5442 Y1.753 I-0.0035 J-0.0035
G3 X26.5423 Y1.7533 I-0.0019 J-0.0046
G3 X26.5404 Y1.753 I0 J-0.005
G3 X26.5388 Y1.7519 I0.0019 J-0.0046
G3 X26.5377 Y1.7502 I0.0035 J-0.0035
G3 X26.5373 Y1.7483 I0.0046 J-0.0019
G0 Z0.5
G0 X21.8409 Y3.1666
G1 Z-0.1 F30
G3 X21.842 Y3.1683 I-0.0035 J0.0035 F10
G3 X21.8424 Y3.1702 I-0.0046 J0.0019
G3 X21.842 Y3.1721 I-0.005 J0
G3 X21.8409 Y3.1737 I-0.0046 J-0.0019
G3 X21.8393 Y3.1748 I-0.0035 J-0.0035
G3 X21.8374 Y3.1752 I-0.0019 J-0.0046
G3 X21.8355 Y3.1748 I0 J-0.005
G3 X21.8338 Y3.1737 I0.0019 J-0.0046
G3 X21.8328 Y3.1721 I0.0035 J-0.0035
G3 X21.8324 Y3.1702 I0.0046 J-0.0019
G3 X21.8328 Y3.1683 I0.005 J0
G3 X21.8338 Y3.1666 I0.0046 J0.0019
G3 X21.8355 Y3.1656 I0.0035 J0.0035
G3 X21.8374 Y3.1652 I0.0019 J0.0046
G3 X21.8393 Y3.1656 I0 J0.005
G3 X21.8409 Y3.1666 I-0.0019 J0.0046
G1 Z-0.2 F30
G3 X21.842 Y3.1683 I-0.0035 J0.0035 F10
G3 X21.8424 Y3.1702 I-0.0046 J0.0019
G3 X21.842 Y3.1721 I-0.005 J0
G3 X21.8409 Y3.1737 I-0.0046 J-0.0019
G3 X21.8393 Y3.1748 I-0.0035 J-0.0035
G3 X21.8374 Y3.1752 I-0.0019 J-0.0046
G3 X21.8355 Y3.1748 I0 J-0.005
G3 X21.8338 Y3.1737 I0.0019 J-0.0046
G3 X21.8328 Y3.1721 I0.0035 J-0.0035
G3 X21.8324 Y3.1702 I0.0046 J-0.0019
G3 X21.8328 Y3.1683 I0.005 J0
G3 X21.8338 Y3.1666 I0.0046 J0.0019
G3 X21.8355 Y3.1656 I0.0035 J0.0035
G3 X21.8374 Y3.1652 I0.0019 J0.0046
G3 X21.8393 Y3.1656 I0 J0.005
G3 X21.8409 Y3.1666 I-0.0019 J0.0046
G1 Z-0.3 F30
G3 X21.842 Y3.1683 I-0.0035 J0.0035 F10
G3 X21.8424 Y3.1702 I-0.0046 J0.0019
G3 X21.842 Y3.1721 I-0.005 J0
G3 X21.8409 Y3.1737 I-0.0046 J-0.0019
G3 X21.8393 Y3.1748 I-0.0035 J-0.0035
G3 X21.8374 Y3.1752 I-0.0019 J-0.0046
G3 X21.8355 Y3.1748 I0 J-0.005
G3 X21.8338 Y3.1737 I0.0019 J-0.0046
G3 X21.8328 Y3.1721 I0.0035 J-0.0035
G3 X21.8324 Y3.1702 I0.0046 J-0.0019
G3 X21.8328 Y3.1683 I0.005 J0
G3 X21.8338 Y3.1666 I0.0046 J0.0019
G3 X21.8355 Y3.1656 I0.0035 J0.0035
G3 X21.8374 Y3.1652 I0.0019 J0.0046
G3 X21.8393 Y3.1656 I0 J0.005
G3 X21.8409 Y3.1666 I-0.0019 J0.0046
G1 Z-0.4 F30
G3 X21.842 Y3.1683 I-0.0035 J0.0035 F10
G3 X21.8424 Y3.1702 I-0.0046 J0.0019
G3 X21.842 Y3.1721 I-0.005 J0
G3 X21.8409 Y3.1737 I-0.0046 J-0.0019
G3 X21.8393 Y3.1748 I-0.0035 J-0.0035
G3 X21.8374 Y3.1752 I-0.0019 J-0.0046
G3 X21.8355 Y3.1748 I0 J-0.005
G3 X21.8338 Y3.1737 I0.0019 J-0.0046
G3 X21.8328 Y3.1721 I0.0035 J-0.0035
G3 X21.8324 Y3.1702 I0.0046 J-0.0019
G3 X21.8328 Y3.1683 I0.005 J0
G3 X21.8338 Y3.1666 I0.0046 J0.0019
G3 X21.8355 Y3.1656 I0.0035 J0.0035
G3 X21.8374 Y3.1652 I0.0019 J0.0046
G3 X21.8393 Y3.1656 I0 J0.005
G3 X21.8409 Y3.1666 I-0.0019 J0.0046
G1 Z-0.5 F30
G3 X21.842 Y3.1683 I-0.0035 J0.0035 F10
G3 X21.8424 Y3.1702 I-0.0046 J0.0019
G3 X21.842 Y3.1721 I-0.005 J0
G3 X21.8409 Y3.1737 I-0.0046 J-0.0019
G3 X21.8393 Y3.1748 I-0.0035 J-0.0035
G3 X21.8374 Y3.1752 I-0.0019 J-0.0046
G3 X21.8355 Y3.1748 I0 J-0.005
G3 X21.8338 Y3.1737 I0.0019 J-0.0046
G3 X21.8328 Y3.1721 I0.0035 J-0.0035
G3 X21.8324 Y3.1702 I0.0046 J-0.0019
G3 X21.8328 Y3.1683 I0.005 J0
G3 X21.8338 Y3.1666 I0.0046 J0.0019
G3 X21.8355 Y3.1656 I0.0035 J0.0035
G3 X21.8374 Y3.1652 I0.0019 J0.0046
G3 X21.8393 Y3.1656 I0 J0.005
G3 X21.8409 Y3.1666 I-0.0019 J0.0046
G1 Z-0.6 F30
G3 X21.842 Y3.1683 I-0.0035 J0.0035 F10
G3 X21.8424 Y3.1702 I-0.0046 J0.0019
G3 X21.842 Y3.1721 I-0.005 J0
G3 X21.8409 Y3.1737 I-0.0046 J-0.0019
G3 X21.8393 Y3.1748 I-0.0035 J-0.0035
G3 X21.8374 Y3.1752 I-0.0019 J-0.0046
G3 X21.8355 Y3.1748 I0 J-0.005
G3 X21.8338 Y3.1737 I0.0019 J-0.0046
G3 X21.8328 Y3.1721 I0.0035 J-0.0035
G3 X21.8324 Y3.1702 I0.0046 J-0.0019
G3 X21.8328 Y3.1683 I0.005 J0
G3 X21.8338 Y3.1666 I0.0046 J0.0019
G3 X21.8355 Y3.1656 I0.0035 J0.0035
G3 X21.8374 Y3.1652 I0.0019 J0.0046
G3 X21.8393 Y3.1656 I0 J0.005
G3 X21.8409 Y3.1666 I-0.0019 J0.0046
G1 Z-0.7 F30
G3 X21.842 Y3.1683 I-0.0035 J0.0035 F10
G3 X21.8424 Y3.1702 I-0.0046 J0.0019
G3 X21.842 Y3.1721 I-0.005 J0
G3 X21.8409 Y3.1737 I-0.0046 J-0.0019
G3 X21.8393 Y3.1748 I-0.0035 J-0.0035
G3 X21.8374 Y3.1752 I-0.0019 J-0.0046
G3 X21.8355 Y3.1748 I0 J-0.005
G3 X21.8338 Y3.1737 I0.0019 J-0.0046
G3 X21.8328 Y3.1721 I0.0035 J-0.0035
G3 X21.8324 Y3.1702 I0.0046 J-0.0019
G3 X21.8328 Y3.1683 I0.005 J0
G3 X21.8338 Y3.1666 I0.0046 J0.0019
G3 X21.8355 Y3.1656 I0.0035 J0.0035
G3 X21.8374 Y3.1652 I0.0019 J0.0046
G3 X21.8393 Y3.1656 I0 J0.005
G3 X21.8409 Y3.1666 I-0.0019 J0.0046
G1 Z-0.8 F30
G3 X21.842 Y3.1683 I-0.0035 J0.0035 F10
G3 X21.8424 Y3.1702 I-0.0046 J0.0019
G3 X21.842 Y3.1721 I-0.005 J0
G3 X21.8409 Y3.1737 I-0.0046 J-0.0019
G3 X21.8393 Y3.1748 I-0.0035 J-0.0035
G3 X21.8374 Y3.1752 I-0.0019 J-0.0046
G3 X21.8355 Y3.1748 I0 J-0.005
G3 X21.8338 Y3.1737 I0.0019 J-0.0046
G3 X21.8328 Y3.1721 I0.0035 J-0.0035
G3 X21.8324 Y3.1702 I0.0046 J-0.0019
G3 X21.8328 Y3.1683 I0.005 J0
G3 X21.8338 Y3.1666 I0.0046 J0.0019
G3 X21.8355 Y3.1656 I0.0035 J0.0035
G3 X21.8374 Y3.1652 I0.0019 J0.0046
G3 X21.8393 Y3.1656 I0 J0.005
G3 X21.8409 Y3.1666 I-0.0019 J0.0046
G0 Z0.5
G0 X20.7947 Y6.0472
G1 Z-0.1 F30
G3 X20.7928 Y6.0476 I-0.0019 J-0.0046 F10
G3 X20.7909 Y6.0472 I0 J-0.005
G3 X20.7892 Y6.0461 I0.0019 J-0.0046
G3 X20.7882 Y6.0445 I0.0035 J-0.0035
G3 X20.7878 Y6.0426 I0.0046 J-0.0019
G3 X20.7882 Y6.0406 I0.005 J0
G3 X20.7892 Y6.039 I0.0046 J0.0019
G3 X20.7909 Y6.0379 I0.0035 J0.0035
G3 X20.7928 Y6.0376 I0.0019 J0.0046
G3 X20.7947 Y6.0379 I0 J0.005
G3 X20.7963 Y6.039 I-0.0019 J0.0046
G3 X20.7974 Y6.0406 I-0.0035 J0.0035
G3 X20.7978 Y6.0426 I-0.0046 J0.0019
G3 X20.7974 Y6.0445 I-0.005 J0
G3 X20.7963 Y6.0461 I-0.0046 J-0.0019
G3 X20.7947 Y6.0472 I-0.0035 J-0.0035
G1 Z-0.2 F30
G3 X20.7928 Y6.0476 I-0.0019 J-0.0046 F10
G3 X20.7909 Y6.0472 I0 J-0.005
G3 X20.7892 Y6.0461 I0.0019 J-0.0046
G3 X20.7882 Y6.0445 I0.0035 J-0.0035
G3 X20.7878 Y6.0426 I0.0046 J-0.0019
G3 X20.7882 Y6.0406 I0.005 J0
G3 X20.7892 Y6.039 I0.0046 J0.0019
G3 X20.7909 Y6.0379 I0.0035 J0.0035
G3 X20.7928 Y6.0376 I0.0019 J0.0046
G3 X20.7947 Y6.0379 I0 J0.005
G3 X20.7963 Y6.039 I-0.0019 J0.0046
G3 X20.7974 Y6.0406 I-0.0035 J0.0035
G3 X20.7978 Y6.0426 I-0.0046 J0.0019
G3 X20.7974 Y6.0445 I-0.005 J0
G3 X20.7963 Y6.0461 I-0.0046 J-0.0019
G3 X20.7947 Y6.0472 I-0.0035 J-0.0035
G1 Z-0.3 F30
G3 X20.7928 Y6.0476 I-0.0019 J-0.0046 F10
G3 X20.7909 Y6.0472 I0 J-0.005
G3 X20.7892 Y6.0461 I0.0019 J-0.0046
G3 X20.7882 Y6.0445 I0.0035 J-0.0035
G3 X20.7878 Y6.0426 I0.0046 J-0.0019
G3 X20.7882 Y6.0406 I0.005 J0
G3 X20.7892 Y6.039 I0.0046 J0.0019
G3 X20.7909 Y6.0379 I0.0035 J0.0035
G3 X20.7928 Y6.0376 I0.0019 J0.0046
G3 X20.7947 Y6.0379 I0 J0.005
G3 X20.7963 Y6.039 I-0.0019 J0.0046
G3 X20.7974 Y6.0406 I-0.0035 J0.0035
G3 X20.7978 Y6.0426 I-0.0046 J0.0019
G3 X20.7974 Y6.0445 I-0.005 J0
G3 X20.7963 Y6.0461 I-0.0046 J-0.0019
G3 X20.7947 Y6.0472 I-0.0035 J-0.0035
G1 Z-0.4 F30
G3 X20.7928 Y6.0476 I-0.0019 J-0.0046 F10
G3 X20.7909 Y6.0472 I0 J-0.005
G3 X20.7892 Y6.0461 I0.0019 J-0.0046
G3 X20.7882 Y6.0445 I0.0035 J-0.0035
G3 X20.7878 Y6.0426 I0.0046 J-0.0019
G3 X20.7882 Y6.0406 I0.005 J0
G3 X20.7892 Y6.039 I0.0046 J0.0019
G3 X20.7909 Y6.0379 I0.0035 J0.0035
G3 X20.7928 Y6.0376 I0.0019 J0.0046
G3 X20.7947 Y6.0379 I0 J0.005
G3 X20.7963 Y6.039 I-0.0019 J0.0046
G3 X20.7974 Y6.0406 I-0.0035 J0.0035
G3 X20.7978 Y6.0426 I-0.0046 J0.0019
G3 X20.7974 Y6.0445 I-0.005 J0
G3 X20.7963 Y6.0461 I-0.0046 J-0.0019
G3 X20.7947 Y6.0472 I-0.0035 J-0.0035
G1 Z-0.5 F30
G3 X20.7928 Y6.0476 I-0.0019 J-0.0046 F10
G3 X20.7909 Y6.0472 I0 J-0.005
G3 X20.7892 Y6.0461 I0.0019 J-0.0046
G3 X20.7882 Y6.0445 I0.0035 J-0.0035
G3 X20.7878 Y6.0426 I0.0046 J-0.0019
G3 X20.7882 Y6.0406 I0.005 J0
G3 X20.7892 Y6.039 I0.0046 J0.0019
G3 X20.7909 Y6.0379 I0.0035 J0.0035
G3 X20.7928 Y6.0376 I0.0019 J0.0046
G3 X20.7947 Y6.0379 I0 J0.005
G3 X20.7963 Y6.039 I-0.0019 J0.0046
G3 X20.7974 Y6.0406 I-0.0035 J0.0035
G3 X20.7978 Y6.0426 I-0.0046 J0.0019
G3 X20.7974 Y6.0445 I-0.005 J0
G3 X20.7963 Y6.0461 I-0.0046 J-0.0019
G3 X20.7947 Y6.0472 I-0.0035 J-0.0035
G1 Z-0.6 F30
G3 X20.7928 Y6.0476 I-0.0019 J-0.0046 F10
G3 X20.7909 Y6.0472 I0 J-0.005
G3 X20.7892 Y6.0461 I0.0019 J-0.0046
G3 X20.7882 Y6.0445 I0.0035 J-0.0035
G3 X20.7878 Y6.0426 I0.0046 J-0.0019
G3 X20.7882 Y6.0406 I0.005 J0
G3 X20.7892 Y6.039 I0.0046 J0.0019
G3 X20.7909 Y6.0379 I0.0035 J0.0035
G3 X20.7928 Y6.0376 I0.0019 J0.0046
G3 X20.7947 Y6.0379 I0 J0.005
G3 X20.7963 Y6.039 I-0.0019 J0.0046
G3 X20.7974 Y6.0406 I-0.0035 J0.0035
G3 X20.7978 Y6.0426 I-0.0046 J0.0019
G3 X20.7974 Y6.0445 I-0.005 J0
G3 X20.7963 Y6.0461 I-0.0046 J-0.0019
G3 X20.7947 Y6.0472 I-0.0035 J-0.0035
G1 Z-0.7 F30
G3 X20.7928 Y6.0476 I-0.0019 J-0.0046 F10
G3 X20.7909 Y6.0472 I0 J-0.005
G3 X20.7892 Y6.0461 I0.0019 J-0.0046
G3 X20.7882 Y6.0445 I0.0035 J-0.0035
G3 X20.7878 Y6.0426 I0.0046 J-0.0019
G3 X20.7882 Y6.0406 I0.005 J0
G3 X20.7892 Y6.039 I0.0046 J0.0019
G3 X20.7909 Y6.0379 I0.0035 J0.0035
G3 X20.7928 Y6.0376 I0.0019 J0.0046
G3 X20.7947 Y6.0379 I0 J0.005
G3 X20.7963 Y6.039 I-0.0019 J0.0046
G3 X20.7974 Y6.0406 I-0.0035 J0.0035
G3 X20.7978 Y6.0426 I-0.0046 J0.0019
G3 X20.7974 Y6.0445 I-0.005 J0
G3 X20.7963 Y6.0461 I-0.0046 J-0.0019
G3 X20.7947 Y6.0472 I-0.0035 J-0.0035
G1 Z-0.8 F30
G3 X20.7928 Y6.0476 I-0.0019 J-0.0046 F10
G3 X20.7909 Y6.0472 I0 J-0.005
G3 X20.7892 Y6.0461 I0.0019 J-0.0046
G3 X20.7882 Y6.0445 I0.0035 J-0.0035
G3 X20.7878 Y6.0426 I0.0046 J-0.0019
G3 X20.7882 Y6.0406 I0.005 J0
G3 X20.7892 Y6.039 I0.0046 J0.0019
G3 X20.7909 Y6.0379 I0.0035 J0.0035
G3 X20.7928 Y6.0376 I0.0019 J0.0046
G3 X20.7947 Y6.0379 I0 J0.005
G3 X20.7963 Y6.039 I-0.0019 J0.0046
G3 X20.7974 Y6.0406 I-0.0035 J0.0035
G3 X20.7978 Y6.0426 I-0.0046 J0.0019
G3 X20.7974 Y6.0445 I-0.005 J0
G3 X20.7963 Y6.0461 I-0.0046 J-0.0019
G3 X20.7947 Y6.0472 I-0.0035 J-0.0035
G0 Z0.5
G0 X9.6255 Y2.7019
G1 Z-0.1 F30
G3 X9.6251 Y2.7038 I-0.005 J0 F10
G3 X9.624 Y2.7054 I-0.0046 J-0.0019
G3 X9.6224 Y2.7065 I-0.0035 J-0.0035
G3 X9.6205 Y2.7069 I-0.0019 J-0.0046
G3 X9.6186 Y2.7065 I0 J-0.005
G3 X9.6169 Y2.7054 I0.0019 J-0.0046
G3 X9.6159 Y2.7038 I0.0035 J-0.0035
G3 X9.6155 Y2.7019 I0.0046 J-0.0019
G3 X9.6159 Y2.7 I0.005 J0
G3 X9.6169 Y2.6984 I0.0046 J0.0019
G3 X9.6186 Y2.6973 I0.0035 J0.0035
G3 X9.6205 Y2.6969 I0.0019 J0.0046
G3 X9.6224 Y2.6973 I0 J0.005
G3 X9.624 Y2.6984 I-0.0019 J0.0046
G3 X9.6251 Y2.7 I-0.0035 J0.0035
G3 X9.6255 Y2.7019 I-0.0046 J0.0019
G1 Z-0.2 F30
G3 X9.6251 Y2.7038 I-0.005 J0 F10
G3 X9.624 Y2.7054 I-0.0046 J-0.0019
G3 X9.6224 Y2.7065 I-0.0035 J-0.0035
G3 X9.6205 Y2.7069 I-0.0019 J-0.0046
G3 X9.6186 Y2.7065 I0 J-0.005
G3 X9.6169 Y2.7054 I0.0019 J-0.0046
G3 X9.6159 Y2.7038 I0.0035 J-0.0035
G3 X9.6155 Y2.7019 I0.0046 J-0.0019
G3 X9.6159 Y2.7 I0.005 J0
G3 X9.6169 Y2.6984 I0.0046 J0.0019
G3 X9.6186 Y2.6973 I0.0035 J0.0035
G3 X9.6205 Y2.6969 I0.0019 J0.0046
G3 X9.6224 Y2.6973 I0 J0.005
G3 X9.624 Y2.6984 I-0.0019 J0.0046
G3 X9.6251 Y2.7 I-0.0035 J0.0035
G3 X9.6255 Y2.7019 I-0.0046 J0.0019
G1 Z-0.3 F30
G3 X9.6251 Y2.7038 I-0.005 J0 F10
G3 X9.624 Y2.7054 I-0.0046 J-0.0019
G3 X9.6224 Y2.7065 I-0.0035 J-0.0035
G3 X9.6205 Y2.7069 I-0.0019 J-0.0046
G3 X9.6186 Y2.7065 I0 J-0.005
G3 X9.6169 Y2.7054 I0.0019 J-0.0046
G3 X9.6159 Y2.7038 I0.0035 J-0.0035
G3 X9.6155 Y2.7019 I0.0046 J-0.0019
G3 X9.6159 Y2.7 I0.005 J0
G3 X9.6169 Y2.6984 I0.0046 J0.0019
G3 X9.6186 Y2.6973 I0.0035 J0.0035
G3 X9.6205 Y2.6969 I0.0019 J0.0046
G3 X9.6224 Y2.6973 I0 J0.005
G3 X9.624 Y2.6984 I-0.0019 J0.0046
G3 X9.6251 Y2.7 I-0.0035 J0.0035
G3 X9.6255 Y2.7019 I-0.0046 J0.0019
G1 Z-0.4 F30
G3 X9.6251 Y2.7038 I-0.005 J0 F10
G3 X9.624 Y2.7054 I-0.0046 J-0.0019
G3 X9.6224 Y2.7065 I-0.0035 J-0.0035
G3 X9.6205 Y2.7069 I-0.0019 J-0.0046
G3 X9.6186 Y2.7065 I0 J-0.005
G3 X9.6169 Y2.7054 I0.0019 J-0.0046
G3 X9.6159 Y2.7038 I0.0035 J-0.0035
G3 X9.6155 Y2.7019 I0.0046 J-0.0019
G3 X9.6159 Y2.7 I0.005 J0
G3 X9.6169 Y2.6984 I0.0046 J0.0019
G3 X9.6186 Y2.6973 I0.0035 J0.0035
G3 X9.6205 Y2.6969 I0.0019 J0.0046
G3 X9.6224 Y2.6973 I0 J0.005
G3 X9.624 Y2.6984 I-0.0019 J0.0046
G3 X9.6251 Y2.7 I-0.0035 J0.0035
G3 X9.6255 Y2.7019 I-0.0046 J0.0019
G1 Z-0.5 F30
G3 X9.6251 Y2.7038 I-0.005 J0 F10
G3 X9.624 Y2.7054 I-0.0046 J-0.0019
G3 X9.6224 Y2.7065 I-0.0035 J-0.0035
G3 X9.6205 Y2.7069 I-0.0019 J-0.0046
G3 X9.6186 Y2.7065 I0 J-0.005
G3 X9.6169 Y2.7054 I0.0019 J-0.0046
G3 X9.6159 Y2.7038 I0.0035 J-0.0035
G3 X9.6155 Y2.7019 I0.0046 J-0.0019
G3 X9.6159 Y2.7 I0.005 J0
G3 X9.6169 Y2.6984 I0.0046 J0.0019
G3 X9.6186 Y2.6973 I0.0035 J0.0035
G3 X9.6205 Y2.6969 I0.0019 J0.0046
G3 X9.6224 Y2.6973 I0 J0.005
G3 X9.624 Y2.6984 I-0.0019 J0.0046
G3 X9.6251 Y2.7 I-0.0035 J0.0035
G3 X9.6255 Y2.7019 I-0.0046 J0.0019
G1 Z-0.6 F30
G3 X9.6251 Y2.7038 I-0.005 J0 F10
G3 X9.624 Y2.7054 I-0.0046 J-0.0019
G3 X9.6224 Y2.7065 I-0.0035 J-0.0035
G3 X9.6205 Y2.7069 I-0.0019 J-0.0046
G3 X9.6186 Y2.7065 I0 J-0.005
G3 X9.6169 Y2.7054 I0.0019 J-0.0046
G3 X9.6159 Y2.7038 I0.0035 J-0.0035
G3 X9.6155 Y2.7019 I0.0046 J-0.0019
G3 X9.6159 Y2.7 I0.005 J0
G3 X9.6169 Y2.6984 I0.0046 J0.0019
G3 X9.6186 Y2.6973 I0.0035 J0.0035
G3 X9.6205 Y2.6969 I0.0019 J0.0046
G3 X9.6224 Y2.6973 I0 J0.005
G3 X9.624 Y2.6984 I-0.0019 J0.0046
G3 X9.6251 Y2.7 I-0.0035 J0.0035
G3 X9.6255 Y2.7019 I-0.0046 J0.0019
G1 Z-0.7 F30
G3 X9.6251 Y2.7038 I-0.005 J0 F10
G3 X9.624 Y2.7054 I-0.0046 J-0.0019
G3 X9.6224 Y2.7065 I-0.0035 J-0.0035
G3 X9.6205 Y2.7069 I-0.0019 J-0.0046
G3 X9.6186 Y2.7065 I0 J-0.005
G3 X9.6169 Y2.7054 I0.0019 J-0.0046
G3 X9.6159 Y2.7038 I0.0035 J-0.0035
G3 X9.6155 Y2.7019 I0.0046 J-0.0019
G3 X9.6159 Y2.7 I0.005 J0
G3 X9.6169 Y2.6984 I0.0046 J0.0019
G3 X9.6186 Y2.6973 I0.0035 J0.0035
G3 X9.6205 Y2.6969 I0.0019 J0.0046
G3 X9.6224 Y2.6973 I0 J0.005
G3 X9.624 Y2.6984 I-0.0019 J0.0046
G3 X9.6251 Y2.7 I-0.0035 J0.0035
G3 X9.6255 Y2.7019 I-0.0046 J0.0019
G1 Z-0.8 F30
G3 X9.6251 Y2.7038 I-0.005 J0 F10
G3 X9.624 Y2.7054 I-0.0046 J-0.0019
G3 X9.6224 Y2.7065 I-0.0035 J-0.0035
G3 X9.6205 Y2.7069 I-0.0019 J-0.0046
G3 X9.6186 Y2.7065 I0 J-0.005
G3 X9.6169 Y2.7054 I0.0019 J-0.0046
G3 X9.6159 Y2.7038 I0.0035 J-0.0035
G3 X9.6155 Y2.7019 I0.0046 J-0.0019
G3 X9.6159 Y2.7 I0.005 J0
G3 X9.6169 Y2.6984 I0.0046 J0.0019
G3 X9.6186 Y2.6973 I0.0035 J0.0035
G3 X9.6205 Y2.6969 I0.0019 J0.0046
G3 X9.6224 Y2.6973 I0 J0.005
G3 X9.624 Y2.6984 I-0.0019 J0.0046
G3 X9.6251 Y2.7 I-0.0035 J0.0035
G3 X9.6255 Y2.7019 I-0.0046 J0.0019
G0 Z0.5
G0 X21.8133 Y1.7464
G1 Z-0.1 F30
G3 X21.8144 Y1.7448 I0.0046 J0.0019 F10
G3 X21.816 Y1.7437 I0.0035 J0.0035
G3 X21.8179 Y1.7433 I0.0019 J0.0046
G3 X21.8198 Y1.7437 I0 J0.005
G3 X21.8215 Y1.7448 I-0.0019 J0.0046
G3 X21.8225 Y1.7464 I-0.0035 J0.0035
G3 X21.8229 Y1.7483 I-0.0046 J0.0019
G3 X21.8225 Y1.7502 I-0.005 J0
G3 X21.8215 Y1.7519 I-0.0046 J-0.0019
G3 X21.8198 Y1.753 I-0.0035 J-0.0035
G3 X21.8179 Y1.7533 I-0.0019 J-0.0046
G3 X21.816 Y1.753 I0 J-0.005
G3 X21.8144 Y1.7519 I0.0019 J-0.0046
G3 X21.8133 Y1.7502 I0.0035 J-0.0035
G3 X21.8129 Y1.7483 I0.0046 J-0.0019
G3 X21.8133 Y1.7464 I0.005 J0
G1 Z-0.2 F30
G3 X21.8144 Y1.7448 I0.0046 J0.0019 F10
G3 X21.816 Y1.7437 I0.0035 J0.0035
G3 X21.8179 Y1.7433 I0.0019 J0.0046
G3 X21.8198 Y1.7437 I0 J0.005
G3 X21.8215 Y1.7448 I-0.0019 J0.0046
G3 X21.8225 Y1.7464 I-0.0035 J0.0035
G3 X21.8229 Y1.7483 I-0.0046 J0.0019
G3 X21.8225 Y1.7502 I-0.005 J0
G3 X21.8215 Y1.7519 I-0.0046 J-0.0019
G3 X21.8198 Y1.753 I-0.0035 J-0.0035
G3 X21.8179 Y1.7533 I-0.0019 J-0.0046
G3 X21.816 Y1.753 I0 J-0.005
G3 X21.8144 Y1.7519 I0.0019 J-0.0046
G3 X21.8133 Y1.7502 I0.0035 J-0.0035
G3 X21.8129 Y1.7483 I0.0046 J-0.0019
G3 X21.8133 Y1.7464 I0.005 J0
G1 Z-0.3 F30
G3 X21.8144 Y1.7448 I0.0046 J0.0019 F10
G3 X21.816 Y1.7437 I0.0035 J0.0035
G3 X21.8179 Y1.7433 I0.0019 J0.0046
G3 X21.8198 Y1.7437 I0 J0.005
G3 X21.8215 Y1.7448 I-0.0019 J0.0046
G3 X21.8225 Y1.7464 I-0.0035 J0.0035
G3 X21.8229 Y1.7483 I-0.0046 J0.0019
G3 X21.8225 Y1.7502 I-0.005 J0
G3 X21.8215 Y1.7519 I-0.0046 J-0.0019
G3 X21.8198 Y1.753 I-0.0035 J-0.0035
G3 X21.8179 Y1.7533 I-0.0019 J-0.0046
G3 X21.816 Y1.753 I0 J-0.005
G3 X21.8144 Y1.7519 I0.0019 J-0.0046
G3 X21.8133 Y1.7502 I0.0035 J-0.0035
G3 X21.8129 Y1.7483 I0.0046 J-0.0019
G3 X21.8133 Y1.7464 I0.005 J0
G1 Z-0.4 F30
G3 X21.8144 Y1.7448 I0.0046 J0.0019 F10
G3 X21.816 Y1.7437 I0.0035 J0.0035
G3 X21.8179 Y1.7433 I0.0019 J0.0046
G3 X21.8198 Y1.7437 I0 J0.005
G3 X21.8215 Y1.7448 I-0.0019 J0.0046
G3 X21.8225 Y1.7464 I-0.0035 J0.0035
G3 X21.8229 Y1.7483 I-0.0046 J0.0019
G3 X21.8225 Y1.7502 I-0.005 J0
G3 X21.8215 Y1.7519 I-0.0046 J-0.0019
G3 X21.8198 Y1.753 I-0.0035 J-0.0035
G3 X21.8179 Y1.7533 I-0.0019 J-0.0046
G3 X21.816 Y1.753 I0 J-0.005
G3 X21.8144 Y1.7519 I0.0019 J-0.0046
G3 X21.8133 Y1.7502 I0.0035 J-0.0035
G3 X21.8129 Y1.7483 I0.0046 J-0.0019
G3 X21.8133 Y1.7464 I0.005 J0
G1 Z-0.5 F30
G3 X21.8144 Y1.7448 I0.0046 J0.0019 F10
G3 X21.816 Y1.7437 I0.0035 J0.0035
G3 X21.8179 Y1.7433 I0.0019 J0.0046
G3 X21.8198 Y1.7437 I0 J0.005
G3 X21.8215 Y1.7448 I-0.0019 J0.0046
G3 X21.8225 Y1.7464 I-0.0035 J0.0035
G3 X21.8229 Y1.7483 I-0.0046 J0.0019
G3 X21.8225 Y1.7502 I-0.005 J0
G3 X21.8215 Y1.7519 I-0.0046 J-0.0019
G3 X21.8198 Y1.753 I-0.0035 J-0.0035
G3 X21.8179 Y1.7533 I-0.0019 J-0.0046
G3 X21.816 Y1.753 I0 J-0.005
G3 X21.8144 Y1.7519 I0.0019 J-0.0046
G3 X21.8133 Y1.7502 I0.0035 J-0.0035
G3 X21.8129 Y1.7483 I0.0046 J-0.0019
G3 X21.8133 Y1.7464 I0.005 J0
G1 Z-0.6 F30
G3 X21.8144 Y1.7448 I0.0046 J0.0019 F10
G3 X21.816 Y1.7437 I0.0035 J0.0035
G3 X21.8179 Y1.7433 I0.0019 J0.0046
G3 X21.8198 Y1.7437 I0 J0.005
G3 X21.8215 Y1.7448 I-0.0019 J0.0046
G3 X21.8225 Y1.7464 I-0.0035 J0.0035
G3 X21.8229 Y1.7483 I-0.0046 J0.0019
G3 X21.8225 Y1.7502 I-0.005 J0
G3 X21.8215 Y1.7519 I-0.0046 J-0.0019
G3 X21.8198 Y1.753 I-0.0035 J-0.0035
G3 X21.8179 Y1.7533 I-0.0019 J-0.0046
G3 X21.816 Y1.753 I0 J-0.005
G3 X21.8144 Y1.7519 I0.0019 J-0.0046
G3 X21.8133 Y1.7502 I0.0035 J-0.0035
G3 X21.8129 Y1.7483 I0.0046 J-0.0019
G3 X21.8133 Y1.7464 I0.005 J0
G1 Z-0.7 F30
G3 X21.8144 Y1.7448 I0.0046 J0.0019 F10
G3 X21.816 Y1.7437 I0.0035 J0.0035
G3 X21.8179 Y1.7433 I0.0019 J0.0046
G3 X21.8198 Y1.7437 I0 J0.005
G3 X21.8215 Y1.7448 I-0.0019 J0.0046
G3 X21.8225 Y1.7464 I-0.0035 J0.0035
G3 X21.8229 Y1.7483 I-0.0046 J0.0019
G3 X21.8225 Y1.7502 I-0.005 J0
G3 X21.8215 Y1.7519 I-0.0046 J-0.0019
G3 X21.8198 Y1.753 I-0.0035 J-0.0035
G3 X21.8179 Y1.7533 I-0.0019 J-0.0046
G3 X21.816 Y1.753 I0 J-0.005
G3 X21.8144 Y1.7519 I0.0019 J-0.0046
G3 X21.8133 Y1.7502 I0.0035 J-0.0035
G3 X21.8129 Y1.7483 I0.0046 J-0.0019
G3 X21.8133 Y1.7464 I0.005 J0
G1 Z-0.8 F30
G3 X21.8144 Y1.7448 I0.0046 J0.0019 F10
G3 X21.816 Y1.7437 I0.0035 J0.0035
G3 X21.8179 Y1.7433 I0.0019 J0.0046
G3 X21.8198 Y1.7437 I0 J0.005
G3 X21.8215 Y1.7448 I-0.0019 J0.0046
G3 X21.8225 Y1.7464 I-0.0035 J0.0035
G3 X21.8229 Y1.7483 I-0.0046 J0.0019
G3 X21.8225 Y1.7502 I-0.005 J0
G3 X21.8215 Y1.7519 I-0.0046 J-0.0019
G3 X21.8198 Y1.753 I-0.0035 J-0.0035
G3 X21.8179 Y1.7533 I-0.0019 J-0.0046
G3 X21.816 Y1.753 I0 J-0.005
G3 X21.8144 Y1.7519 I0.0019 J-0.0046
G3 X21.8133 Y1.7502 I0.0035 J-0.0035
G3 X21.8129 Y1.7483 I0.0046 J-0.0019
G3 X21.8133 Y1.7464 I0.005 J0
G0 Z0.5
G0 X6.2846 Y6.0441
G1 Z-0.1 F30
G3 X6.2839 Y6.0455 I-0.0048 J-0.0015 F10
G3 X6.2828 Y6.0466 I-0.004 J-0.0029
G3 X6.2814 Y6.0473 I-0.0029 J-0.004
G3 X6.2798 Y6.0476 I-0.0015 J-0.0048
G3 X6.2783 Y6.0473 I0 J-0.005
G3 X6.2769 Y6.0466 I0.0015 J-0.0048
G3 X6.2758 Y6.0455 I0.0029 J-0.004
G3 X6.2751 Y6.0441 I0.004 J-0.0029
G3 X6.2748 Y6.0426 I0.0048 J-0.0015
G1 X6.2748 Y6.0426
G1 X6.2748 Y6.0426
G3 X6.2751 Y6.041 I0.005 J0
G3 X6.2758 Y6.0396 I0.0048 J0.0015
G3 X6.2769 Y6.0385 I0.004 J0.0029
G3 X6.2783 Y6.0378 I0.0029 J0.004
G3 X6.2798 Y6.0376 I0.0015 J0.0048
G3 X6.2814 Y6.0378 I0 J0.005
G3 X6.2828 Y6.0385 I-0.0015 J0.0048
G3 X6.2839 Y6.0396 I-0.0029 J0.004
G3 X6.2846 Y6.041 I-0.004 J0.0029
G3 X6.2848 Y6.0426 I-0.0048 J0.0015
G1 X6.2848 Y6.0426
G1 X6.2848 Y6.0426
G3 X6.2846 Y6.0441 I-0.005 J0
G1 Z-0.2 F30
G3 X6.2839 Y6.0455 I-0.0048 J-0.0015 F10
G3 X6.2828 Y6.0466 I-0.004 J-0.0029
G3 X6.2814 Y6.0473 I-0.0029 J-0.004
G3 X6.2798 Y6.0476 I-0.0015 J-0.0048
G3 X6.2783 Y6.0473 I0 J-0.005
G3 X6.2769 Y6.0466 I0.0015 J-0.0048
G3 X6.2758 Y6.0455 I0.0029 J-0.004
G3 X6.2751 Y6.0441 I0.004 J-0.0029
G3 X6.2748 Y6.0426 I0.0048 J-0.0015
G1 X6.2748 Y6.0426
G1 X6.2748 Y6.0426
G3 X6.2751 Y6.041 I0.005 J0
G3 X6.2758 Y6.0396 I0.0048 J0.0015
G3 X6.2769 Y6.0385 I0.004 J0.0029
G3 X6.2783 Y6.0378 I0.0029 J0.004
G3 X6.2798 Y6.0376 I0.0015 J0.0048
G3 X6.2814 Y6.0378 I0 J0.005
G3 X6.2828 Y6.0385 I-0.0015 J0.0048
G3 X6.2839 Y6.0396 I-0.0029 J0.004
G3 X6.2846 Y6.041 I-0.004 J0.0029
G3 X6.2848 Y6.0426 I-0.0048 J0.0015
G1 X6.2848 Y6.0426
G1 X6.2848 Y6.0426
G3 X6.2846 Y6.0441 I-0.005 J0
G1 Z-0.3 F30
G3 X6.2839 Y6.0455 I-0.0048 J-0.0015 F10
G3 X6.2828 Y6.0466 I-0.004 J-0.0029
G3 X6.2814 Y6.0473 I-0.0029 J-0.004
G3 X6.2798 Y6.0476 I-0.0015 J-0.0048
G3 X6.2783 Y6.0473 I0 J-0.005
G3 X6.2769 Y6.0466 I0.0015 J-0.0048
G3 X6.2758 Y6.0455 I0.0029 J-0.004
G3 X6.2751 Y6.0441 I0.004 J-0.0029
G3 X6.2748 Y6.0426 I0.0048 J-0.0015
G1 X6.2748 Y6.0426
G1 X6.2748 Y6.0426
G3 X6.2751 Y6.041 I0.005 J0
G3 X6.2758 Y6.0396 I0.0048 J0.0015
G3 X6.2769 Y6.0385 I0.004 J0.0029
G3 X6.2783 Y6.0378 I0.0029 J0.004
G3 X6.2798 Y6.0376 I0.0015 J0.0048
G3 X6.2814 Y6.0378 I0 J0.005
G3 X6.2828 Y6.0385 I-0.0015 J0.0048
G3 X6.2839 Y6.0396 I-0.0029 J0.004
G3 X6.2846 Y6.041 I-0.004 J0.0029
G3 X6.2848 Y6.0426 I-0.0048 J0.0015
G1 X6.2848 Y6.0426
G1 X6.2848 Y6.0426
G3 X6.2846 Y6.0441 I-0.005 J0
G1 Z-0.4 F30
G3 X6.2839 Y6.0455 I-0.0048 J-0.0015 F10
G3 X6.2828 Y6.0466 I-0.004 J-0.0029
G3 X6.2814 Y6.0473 I-0.0029 J-0.004
G3 X6.2798 Y6.0476 I-0.0015 J-0.0048
G3 X6.2783 Y6.0473 I0 J-0.005
G3 X6.2769 Y6.0466 I0.0015 J-0.0048
G3 X6.2758 Y6.0455 I0.0029 J-0.004
G3 X6.2751 Y6.0441 I0.004 J-0.0029
G3 X6.2748 Y6.0426 I0.0048 J-0.0015
G1 X6.2748 Y6.0426
G1 X6.2748 Y6.0426
G3 X6.2751 Y6.041 I0.005 J0
G3 X6.2758 Y6.0396 I0.0048 J0.0015
G3 X6.2769 Y6.0385 I0.004 J0.0029
G3 X6.2783 Y6.0378 I0.0029 J0.004
G3 X6.2798 Y6.0376 I0.0015 J0.0048
G3 X6.2814 Y6.0378 I0 J0.005
G3 X6.2828 Y6.0385 I-0.0015 J0.0048
G3 X6.2839 Y6.0396 I-0.0029 J0.004
G3 X6.2846 Y6.041 I-0.004 J0.0029
G3 X6.2848 Y6.0426 I-0.0048 J0.0015
G1 X6.2848 Y6.0426
G1 X6.2848 Y6.0426
G3 X6.2846 Y6.0441 I-0.005 J0
G1 Z-0.5 F30
G3 X6.2839 Y6.0455 I-0.0048 J-0.0015 F10
G3 X6.2828 Y6.0466 I-0.004 J-0.0029
G3 X6.2814 Y6.0473 I-0.0029 J-0.004
G3 X6.2798 Y6.0476 I-0.0015 J-0.0048
G3 X6.2783 Y6.0473 I0 J-0.005
G3 X6.2769 Y6.0466 I0.0015 J-0.0048
G3 X6.2758 Y6.0455 I0.0029 J-0.004
G3 X6.2751 Y6.0441 I0.004 J-0.0029
G3 X6.2748 Y6.0426 I0.0048 J-0.0015
G1 X6.2748 Y6.0426
G1 X6.2748 Y6.0426
G3 X6.2751 Y6.041 I0.005 J0
G3 X6.2758 Y6.0396 I0.0048 J0.0015
G3 X6.2769 Y6.0385 I0.004 J0.0029
G3 X6.2783 Y6.0378 I0.0029 J0.004
G3 X6.2798 Y6.0376 I0.0015 J0.0048
G3 X6.2814 Y6.0378 I0 J0.005
G3 X6.2828 Y6.0385 I-0.0015 J0.0048
G3 X6.2839 Y6.0396 I-0.0029 J0.004
G3 X6.2846 Y6.041 I-0.004 J0.0029
G3 X6.2848 Y6.0426 I-0.0048 J0.0015
G1 X6.2848 Y6.0426
G1 X6.2848 Y6.0426
G3 X6.2846 Y6.0441 I-0.005 J0
G1 Z-0.6 F30
G3 X6.2839 Y6.0455 I-0.0048 J-0.0015 F10
G3 X6.2828 Y6.0466 I-0.004 J-0.0029
G3 X6.2814 Y6.0473 I-0.0029 J-0.004
G3 X6.2798 Y6.0476 I-0.0015 J-0.0048
G3 X6.2783 Y6.0473 I0 J-0.005
G3 X6.2769 Y6.0466 I0.0015 J-0.0048
G3 X6.2758 Y6.0455 I0.0029 J-0.004
G3 X6.2751 Y6.0441 I0.004 J-0.0029
G3 X6.2748 Y6.0426 I0.0048 J-0.0015
G1 X6.2748 Y6.0426
G1 X6.2748 Y6.0426
G3 X6.2751 Y6.041 I0.005 J0
G3 X6.2758 Y6.0396 I0.0048 J0.0015
G3 X6.2769 Y6.0385 I0.004 J0.0029
G3 X6.2783 Y6.0378 I0.0029 J0.004
G3 X6.2798 Y6.0376 I0.0015 J0.0048
G3 X6.2814 Y6.0378 I0 J0.005
G3 X6.2828 Y6.0385 I-0.0015 J0.0048
G3 X6.2839 Y6.0396 I-0.0029 J0.004
G3 X6.2846 Y6.041 I-0.004 J0.0029
G3 X6.2848 Y6.0426 I-0.0048 J0.0015
G1 X6.2848 Y6.0426
G1 X6.2848 Y6.0426
G3 X6.2846 Y6.0441 I-0.005 J0
G1 Z-0.7 F30
G3 X6.2839 Y6.0455 I-0.0048 J-0.0015 F10
G3 X6.2828 Y6.0466 I-0.004 J-0.0029
G3 X6.2814 Y6.0473 I-0.0029 J-0.004
G3 X6.2798 Y6.0476 I-0.0015 J-0.0048
G3 X6.2783 Y6.0473 I0 J-0.005
G3 X6.2769 Y6.0466 I0.0015 J-0.0048
G3 X6.2758 Y6.0455 I0.0029 J-0.004
G3 X6.2751 Y6.0441 I0.004 J-0.0029
G3 X6.2748 Y6.0426 I0.0048 J-0.0015
G1 X6.2748 Y6.0426
G1 X6.2748 Y6.0426
G3 X6.2751 Y6.041 I0.005 J0
G3 X6.2758 Y6.0396 I0.0048 J0.0015
G3 X6.2769 Y6.0385 I0.004 J0.0029
G3 X6.2783 Y6.0378 I0.0029 J0.004
G3 X6.2798 Y6.0376 I0.0015 J0.0048
G3 X6.2814 Y6.0378 I0 J0.005
G3 X6.2828 Y6.0385 I-0.0015 J0.0048
G3 X6.2839 Y6.0396 I-0.0029 J0.004
G3 X6.2846 Y6.041 I-0.004 J0.0029
G3 X6.2848 Y6.0426 I-0.0048 J0.0015
G1 X6.2848 Y6.0426
G1 X6.2848 Y6.0426
G3 X6.2846 Y6.0441 I-0.005 J0
G1 Z-0.8 F30
G3 X6.2839 Y6.0455 I-0.0048 J-0.0015 F10
G3 X6.2828 Y6.0466 I-0.004 J-0.0029
G3 X6.2814 Y6.0473 I-0.0029 J-0.004
G3 X6.2798 Y6.0476 I-0.0015 J-0.0048
G3 X6.2783 Y6.0473 I0 J-0.005
G3 X6.2769 Y6.0466 I0.0015 J-0.0048
G3 X6.2758 Y6.0455 I0.0029 J-0.004
G3 X6.2751 Y6.0441 I0.004 J-0.0029
G3 X6.2748 Y6.0426 I0.0048 J-0.0015
G1 X6.2748 Y6.0426
G1 X6.2748 Y6.0426
G3 X6.2751 Y6.041 I0.005 J0
G3 X6.2758 Y6.0396 I0.0048 J0.0015
G3 X6.2769 Y6.0385 I0.004 J0.0029
G3 X6.2783 Y6.0378 I0.0029 J0.004
G3 X6.2798 Y6.0376 I0.0015 J0.0048
G3 X6.2814 Y6.0378 I0 J0.005
G3 X6.2828 Y6.0385 I-0.0015 J0.0048
G3 X6.2839 Y6.0396 I-0.0029 J0.004
G3 X6.2846 Y6.041 I-0.004 J0.0029
G3 X6.2848 Y6.0426 I-0.0048 J0.0015
G1 X6.2848 Y6.0426
G1 X6.2848 Y6.0426
G3 X6.2846 Y6.0441 I-0.005 J0
G0 Z0.5
G0 X17.455 Y2.6979
G1 Z-0.1 F30
G3 X17.4562 Y2.699 I-0.0029 J0.004 F10
G3 X17.4569 Y2.7004 I-0.004 J0.0029
G3 X17.4571 Y2.7019 I-0.0048 J0.0015
G1 X17.4571 Y2.7019
G1 X17.4571 Y2.7019
G3 X17.4569 Y2.7034 I-0.005 J0
G3 X17.4562 Y2.7048 I-0.0048 J-0.0015
G3 X17.455 Y2.7059 I-0.004 J-0.0029
G3 X17.4537 Y2.7067 I-0.0029 J-0.004
G3 X17.4521 Y2.7069 I-0.0015 J-0.0048
G3 X17.4506 Y2.7067 I0 J-0.005
G3 X17.4492 Y2.7059 I0.0015 J-0.0048
G3 X17.4481 Y2.7048 I0.0029 J-0.004
G3 X17.4474 Y2.7034 I0.004 J-0.0029
G3 X17.4471 Y2.7019 I0.0048 J-0.0015
G1 X17.4471 Y2.7019
G1 X17.4471 Y2.7019
G3 X17.4474 Y2.7004 I0.005 J0
G3 X17.4481 Y2.699 I0.0048 J0.0015
G3 X17.4492 Y2.6979 I0.004 J0.0029
G3 X17.4506 Y2.6971 I0.0029 J0.004
G3 X17.4521 Y2.6969 I0.0015 J0.0048
G3 X17.4537 Y2.6971 I0 J0.005
G3 X17.455 Y2.6979 I-0.0015 J0.0048
G1 Z-0.2 F30
G3 X17.4562 Y2.699 I-0.0029 J0.004 F10
G3 X17.4569 Y2.7004 I-0.004 J0.0029
G3 X17.4571 Y2.7019 I-0.0048 J0.0015
G1 X17.4571 Y2.7019
G1 X17.4571 Y2.7019
G3 X17.4569 Y2.7034 I-0.005 J0
G3 X17.4562 Y2.7048 I-0.0048 J-0.0015
G3 X17.455 Y2.7059 I-0.004 J-0.0029
G3 X17.4537 Y2.7067 I-0.0029 J-0.004
G3 X17.4521 Y2.7069 I-0.0015 J-0.0048
G3 X17.4506 Y2.7067 I0 J-0.005
G3 X17.4492 Y2.7059 I0.0015 J-0.0048
G3 X17.4481 Y2.7048 I0.0029 J-0.004
G3 X17.4474 Y2.7034 I0.004 J-0.0029
G3 X17.4471 Y2.7019 I0.0048 J-0.0015
G1 X17.4471 Y2.7019
G1 X17.4471 Y2.7019
G3 X17.4474 Y2.7004 I0.005 J0
G3 X17.4481 Y2.699 I0.0048 J0.0015
G3 X17.4492 Y2.6979 I0.004 J0.0029
G3 X17.4506 Y2.6971 I0.0029 J0.004
G3 X17.4521 Y2.6969 I0.0015 J0.0048
G3 X17.4537 Y2.6971 I0 J0.005
G3 X17.455 Y2.6979 I-0.0015 J0.0048
G1 Z-0.3 F30
G3 X17.4562 Y2.699 I-0.0029 J0.004 F10
G3 X17.4569 Y2.7004 I-0.004 J0.0029
G3 X17.4571 Y2.7019 I-0.0048 J0.0015
G1 X17.4571 Y2.7019
G1 X17.4571 Y2.7019
G3 X17.4569 Y2.7034 I-0.005 J0
G3 X17.4562 Y2.7048 I-0.0048 J-0.0015
G3 X17.455 Y2.7059 I-0.004 J-0.0029
G3 X17.4537 Y2.7067 I-0.0029 J-0.004
G3 X17.4521 Y2.7069 I-0.0015 J-0.0048
G3 X17.4506 Y2.7067 I0 J-0.005
G3 X17.4492 Y2.7059 I0.0015 J-0.0048
G3 X17.4481 Y2.7048 I0.0029 J-0.004
G3 X17.4474 Y2.7034 I0.004 J-0.0029
G3 X17.4471 Y2.7019 I0.0048 J-0.0015
G1 X17.4471 Y2.7019
G1 X17.4471 Y2.7019
G3 X17.4474 Y2.7004 I0.005 J0
G3 X17.4481 Y2.699 I0.0048 J0.0015
G3 X17.4492 Y2.6979 I0.004 J0.0029
G3 X17.4506 Y2.6971 I0.0029 J0.004
G3 X17.4521 Y2.6969 I0.0015 J0.0048
G3 X17.4537 Y2.6971 I0 J0.005
G3 X17.455 Y2.6979 I-0.0015 J0.0048
G1 Z-0.4 F30
G3 X17.4562 Y2.699 I-0.0029 J0.004 F10
G3 X17.4569 Y2.7004 I-0.004 J0.0029
G3 X17.4571 Y2.7019 I-0.0048 J0.0015
G1 X17.4571 Y2.7019
G1 X17.4571 Y2.7019
G3 X17.4569 Y2.7034 I-0.005 J0
G3 X17.4562 Y2.7048 I-0.0048 J-0.0015
G3 X17.455 Y2.7059 I-0.004 J-0.0029
G3 X17.4537 Y2.7067 I-0.0029 J-0.004
G3 X17.4521 Y2.7069 I-0.0015 J-0.0048
G3 X17.4506 Y2.7067 I0 J-0.005
G3 X17.4492 Y2.7059 I0.0015 J-0.0048
G3 X17.4481 Y2.7048 I0.0029 J-0.004
G3 X17.4474 Y2.7034 I0.004 J-0.0029
G3 X17.4471 Y2.7019 I0.0048 J-0.0015
G1 X17.4471 Y2.7019
G1 X17.4471 Y2.7019
G3 X17.4474 Y2.7004 I0.005 J0
G3 X17.4481 Y2.699 I0.0048 J0.0015
G3 X17.4492 Y2.6979 I0.004 J0.0029
G3 X17.4506 Y2.6971 I0.0029 J0.004
G3 X17.4521 Y2.6969 I0.0015 J0.0048
G3 X17.4537 Y2.6971 I0 J0.005
G3 X17.455 Y2.6979 I-0.0015 J0.0048
G1 Z-0.5 F30
G3 X17.4562 Y2.699 I-0.0029 J0.004 F10
G3 X17.4569 Y2.7004 I-0.004 J0.0029
G3 X17.4571 Y2.7019 I-0.0048 J0.0015
G1 X17.4571 Y2.7019
G1 X17.4571 Y2.7019
G3 X17.4569 Y2.7034 I-0.005 J0
G3 X17.4562 Y2.7048 I-0.0048 J-0.0015
G3 X17.455 Y2.7059 I-0.004 J-0.0029
G3 X17.4537 Y2.7067 I-0.0029 J-0.004
G3 X17.4521 Y2.7069 I-0.0015 J-0.0048
G3 X17.4506 Y2.7067 I0 J-0.005
G3 X17.4492 Y2.7059 I0.0015 J-0.0048
G3 X17.4481 Y2.7048 I0.0029 J-0.004
G3 X17.4474 Y2.7034 I0.004 J-0.0029
G3 X17.4471 Y2.7019 I0.0048 J-0.0015
G1 X17.4471 Y2.7019
G1 X17.4471 Y2.7019
G3 X17.4474 Y2.7004 I0.005 J0
G3 X17.4481 Y2.699 I0.0048 J0.0015
G3 X17.4492 Y2.6979 I0.004 J0.0029
G3 X17.4506 Y2.6971 I0.0029 J0.004
G3 X17.4521 Y2.6969 I0.0015 J0.0048
G3 X17.4537 Y2.6971 I0 J0.005
G3 X17.455 Y2.6979 I-0.0015 J0.0048
G1 Z-0.6 F30
G3 X17.4562 Y2.699 I-0.0029 J0.004 F10
G3 X17.4569 Y2.7004 I-0.004 J0.0029
G3 X17.4571 Y2.7019 I-0.0048 J0.0015
G1 X17.4571 Y2.7019
G1 X17.4571 Y2.7019
G3 X17.4569 Y2.7034 I-0.005 J0
G3 X17.4562 Y2.7048 I-0.0048 J-0.0015
G3 X17.455 Y2.7059 I-0.004 J-0.0029
G3 X17.4537 Y2.7067 I-0.0029 J-0.004
G3 X17.4521 Y2.7069 I-0.0015 J-0.0048
G3 X17.4506 Y2.7067 I0 J-0.005
G3 X17.4492 Y2.7059 I0.0015 J-0.0048
G3 X17.4481 Y2.7048 I0.0029 J-0.004
G3 X17.4474 Y2.7034 I0.004 J-0.0029
G3 X17.4471 Y2.7019 I0.0048 J-0.0015
G1 X17.4471 Y2.7019
G1 X17.4471 Y2.7019
G3 X17.4474 Y2.7004 I0.005 J0
G3 X17.4481 Y2.699 I0.0048 J0.0015
G3 X17.4492 Y2.6979 I0.004 J0.0029
G3 X17.4506 Y2.6971 I0.0029 J0.004
G3 X17.4521 Y2.6969 I0.0015 J0.0048
G3 X17.4537 Y2.6971 I0 J0.005
G3 X17.455 Y2.6979 I-0.0015 J0.0048
G1 Z-0.7 F30
G3 X17.4562 Y2.699 I-0.0029 J0.004 F10
G3 X17.4569 Y2.7004 I-0.004 J0.0029
G3 X17.4571 Y2.7019 I-0.0048 J0.0015
G1 X17.4571 Y2.7019
G1 X17.4571 Y2.7019
G3 X17.4569 Y2.7034 I-0.005 J0
G3 X17.4562 Y2.7048 I-0.0048 J-0.0015
G3 X17.455 Y2.7059 I-0.004 J-0.0029
G3 X17.4537 Y2.7067 I-0.0029 J-0.004
G3 X17.4521 Y2.7069 I-0.0015 J-0.0048
G3 X17.4506 Y2.7067 I0 J-0.005
G3 X17.4492 Y2.7059 I0.0015 J-0.0048
G3 X17.4481 Y2.7048 I0.0029 J-0.004
G3 X17.4474 Y2.7034 I0.004 J-0.0029
G3 X17.4471 Y2.7019 I0.0048 J-0.0015
G1 X17.4471 Y2.7019
G1 X17.4471 Y2.7019
G3 X17.4474 Y2.7004 I0.005 J0
G3 X17.4481 Y2.699 I0.0048 J0.0015
G3 X17.4492 Y2.6979 I0.004 J0.0029
G3 X17.4506 Y2.6971 I0.0029 J0.004
G3 X17.4521 Y2.6969 I0.0015 J0.0048
G3 X17.4537 Y2.6971 I0 J0.005
G3 X17.455 Y2.6979 I-0.0015 J0.0048
G1 Z-0.8 F30
G3 X17.4562 Y2.699 I-0.0029 J0.004 F10
G3 X17.4569 Y2.7004 I-0.004 J0.0029
G3 X17.4571 Y2.7019 I-0.0048 J0.0015
G1 X17.4571 Y2.7019
G1 X17.4571 Y2.7019
G3 X17.4569 Y2.7034 I-0.005 J0
G3 X17.4562 Y2.7048 I-0.0048 J-0.0015
G3 X17.455 Y2.7059 I-0.004 J-0.0029
G3 X17.4537 Y2.7067 I-0.0029 J-0.004
G3 X17.4521 Y2.7069 I-0.0015 J-0.0048
G3 X17.4506 Y2.7067 I0 J-0.005
G3 X17.4492 Y2.7059 I0.0015 J-0.0048
G3 X17.4481 Y2.7048 I0.0029 J-0.004
G3 X17.4474 Y2.7034 I0.004 J-0.0029
G3 X17.4471 Y2.7019 I0.0048 J-0.0015
G1 X17.4471 Y2.7019
G1 X17.4471 Y2.7019
G3 X17.4474 Y2.7004 I0.005 J0
G3 X17.4481 Y2.699 I0.0048 J0.0015
G3 X17.4492 Y2.6979 I0.004 J0.0029
G3 X17.4506 Y2.6971 I0.0029 J0.004
G3 X17.4521 Y2.6969 I0.0015 J0.0048
G3 X17.4537 Y2.6971 I0 J0.005
G3 X17.455 Y2.6979 I-0.0015 J0.0048

(pocket 2)
G0 Z0.5
G0 X17.4021 Y2.7019
G1 Z-0.1 F30
G3 X17.4036 Y2.6866 I0.0819 J0 F10
G3 X17.4048 Y2.6823 I0.0214 J0.0041
G3 X17.4069 Y2.6784 I0.0201 J0.0083
G3 X17.4168 Y2.6665 I0.0677 J0.046
G3 X17.4286 Y2.6567 I0.0579 J0.0579
G3 X17.4325 Y2.6546 I0.0122 J0.018
G3 X17.4368 Y2.6533 I0.0083 J0.0201
G3 X17.4521 Y2.6519 I0.0153 J0.0804
G3 X17.4674 Y2.6533 I0 J0.0819
G3 X17.4717 Y2.6546 I-0.0041 J0.0214
G3 X17.4756 Y2.6567 I-0.0083 J0.0201
G3 X17.4875 Y2.6665 I-0.046 J0.0677
G3 X17.4973 Y2.6784 I-0.0579 J0.0579
G3 X17.4994 Y2.6823 I-0.018 J0.0122
G3 X17.5007 Y2.6866 I-0.0201 J0.0083
G3 X17.5021 Y2.7019 I-0.0804 J0.0153
G3 X17.5007 Y2.7172 I-0.0819 J0
G3 X17.4994 Y2.7215 I-0.0214 J-0.0041
G3 X17.4973 Y2.7254 I-0.0201 J-0.0083
G3 X17.4875 Y2.7373 I-0.0677 J-0.046
G3 X17.4756 Y2.7471 I-0.0579 J-0.0579
G3 X17.4717 Y2.7492 I-0.0122 J-0.018
G3 X17.4674 Y2.7504 I-0.0083 J-0.0201
G3 X17.4521 Y2.7519 I-0.0153 J-0.0804
G3 X17.4368 Y2.7504 I0 J-0.0819
G3 X17.4325 Y2.7492 I0.0041 J-0.0214
G3 X17.4286 Y2.7471 I0.0083 J-0.0201
G3 X17.4168 Y2.7373 I0.046 J-0.0677
G3 X17.4069 Y2.7254 I0.0579 J-0.0579
G3 X17.4048 Y2.7215 I0.018 J-0.0122
G3 X17.4036 Y2.7172 I0.0201 J-0.0083
G3 X17.4021 Y2.7019 I0.0804 J-0.0153
G1 X17.3021 Y2.7019 F10
G3 X17.3053 Y2.6678 I0.1819 J0 F10
G3 X17.3124 Y2.644 I0.1196 J0.0228
G3 X17.3242 Y2.6222 I0.1125 J0.0466
G3 X17.346 Y2.5958 I0.1504 J0.1022
G3 X17.3724 Y2.574 I0.1286 J0.1286
G3 X17.3943 Y2.5622 I0.0684 J0.1007
G3 X17.418 Y2.5551 I0.0466 J0.1125
G3 X17.4521 Y2.5519 I0.0341 J0.1786
G3 X17.4862 Y2.5551 I0 J0.1819
G3 X17.51 Y2.5622 I-0.0228 J0.1196
G3 X17.5318 Y2.574 I-0.0466 J0.1125
G3 X17.5582 Y2.5958 I-0.1022 J0.1504
G3 X17.58 Y2.6222 I-0.1286 J0.1286
G3 X17.5918 Y2.644 I-0.1007 J0.0684
G3 X17.5989 Y2.6678 I-0.1125 J0.0466
G3 X17.6021 Y2.7019 I-0.1786 J0.0341
G3 X17.5989 Y2.736 I-0.1819 J0
G3 X17.5918 Y2.7597 I-0.1196 J-0.0228
G3 X17.58 Y2.7816 I-0.1125 J-0.0466
G3 X17.5582 Y2.808 I-0.1504 J-0.1022
G3 X17.5318 Y2.8298 I-0.1286 J-0.1286
G3 X17.51 Y2.8416 I-0.0684 J-0.1007
G3 X17.4862 Y2.8487 I-0.0466 J-0.1125
G3 X17.4521 Y2.8519 I-0.0341 J-0.1786
G3 X17.418 Y2.8487 I0 J-0.1819
G3 X17.3943 Y2.8416 I0.0228 J-0.1196
G3 X17.3724 Y2.8298 I0.0466 J-0.1125
G3 X17.346 Y2.808 I0.1022 J-0.1504
G3 X17.3242 Y2.7816 I0.1286 J-0.1286
G3 X17.3124 Y2.7597 I0.1007 J-0.0684
G3 X17.3053 Y2.736 I0.1125 J-0.0466
G3 X17.3021 Y2.7019 I0.1786 J-0.0341
G1 X17.2021 Y2.7019 F10
G3 X17.2071 Y2.6491 I0.2819 J0 F10
G3 X17.2201 Y2.6058 I0.2178 J0.0415
G3 X17.2415 Y2.566 I0.2049 J0.0849
G3 X17.2753 Y2.5251 I0.2331 J0.1584
G3 X17.3162 Y2.4913 I0.1993 J0.1993
G3 X17.356 Y2.4698 I0.1246 J0.1834
G3 X17.3993 Y2.4569 I0.0849 J0.2049
G3 X17.4521 Y2.4519 I0.0528 J0.2769
G3 X17.5049 Y2.4569 I0 J0.2819
G3 X17.5482 Y2.4698 I-0.0415 J0.2178
G3 X17.588 Y2.4913 I-0.0849 J0.2049
G3 X17.6289 Y2.5251 I-0.1584 J0.2331
G3 X17.6627 Y2.566 I-0.1993 J0.1993
G3 X17.6842 Y2.6058 I-0.1834 J0.1246
G3 X17.6971 Y2.6491 I-0.2049 J0.0849
G3 X17.7021 Y2.7019 I-0.2769 J0.0528
G3 X17.6971 Y2.7547 I-0.2819 J0
G3 X17.6842 Y2.798 I-0.2178 J-0.0415
G3 X17.6627 Y2.8378 I-0.2049 J-0.0849
G3 X17.6289 Y2.8787 I-0.2331 J-0.1584
G3 X17.588 Y2.9125 I-0.1993 J-0.1993
G3 X17.5482 Y2.934 I-0.1246 J-0.1834
G3 X17.5049 Y2.9469 I-0.0849 J-0.2049
G3 X17.4521 Y2.9519 I-0.0528 J-0.2769
G3 X17.3993 Y2.9469 I0 J-0.2819
G3 X17.356 Y2.934 I0.0415 J-0.2178
G3 X17.3162 Y2.9125 I0.0849 J-0.2049
G3 X17.2753 Y2.8787 I0.1584 J-0.2331
G3 X17.2415 Y2.8378 I0.1993 J-0.1993
G3 X17.2201 Y2.798 I0.1834 J-0.1246
G3 X17.2071 Y2.7547 I0.2049 J-0.0849
G3 X17.2021 Y2.7019 I0.2769 J-0.0528
G0 Z0.5
G0 X20.8081 Y6.0911
G1 Z-0.1 F30
G3 X20.7928 Y6.0926 I-0.0153 J-0.0804 F10
G3 X20.7774 Y6.0911 I0 J-0.0819
G3 X20.7732 Y6.0898 I0.0041 J-0.0214
G3 X20.7693 Y6.0877 I0.0083 J-0.0201
G3 X20.7574 Y6.0779 I0.046 J-0.0677
G3 X20.7476 Y6.066 I0.0579 J-0.0579
G3 X20.7455 Y6.0621 I0.018 J-0.0122
G3 X20.7442 Y6.0579 I0.0201 J-0.0083
G3 X20.7428 Y6.0426 I0.0804 J-0.0153
G3 X20.7442 Y6.0272 I0.0819 J0
G3 X20.7455 Y6.023 I0.0214 J0.0041
G3 X20.7476 Y6.0191 I0.0201 J0.0083
G3 X20.7574 Y6.0072 I0.0677 J0.046
G3 X20.7693 Y5.9974 I0.0579 J0.0579
G3 X20.7732 Y5.9953 I0.0122 J0.018
G3 X20.7774 Y5.994 I0.0083 J0.0201
G3 X20.7928 Y5.9926 I0.0153 J0.0804
G3 X20.8081 Y5.994 I0 J0.0819
G3 X20.8124 Y5.9953 I-0.0041 J0.0214
G3 X20.8163 Y5.9974 I-0.0083 J0.0201
G3 X20.8281 Y6.0072 I-0.046 J0.0677
G3 X20.8379 Y6.0191 I-0.0579 J0.0579
G3 X20.8401 Y6.023 I-0.018 J0.0122
G3 X20.8413 Y6.0272 I-0.0201 J0.0083
G3 X20.8428 Y6.0426 I-0.0804 J0.0153
G3 X20.8413 Y6.0579 I-0.0819 J0
G3 X20.8401 Y6.0621 I-0.0214 J-0.0041
G3 X20.8379 Y6.066 I-0.0201 J-0.0083
G3 X20.8281 Y6.0779 I-0.0677 J-0.046
G3 X20.8163 Y6.0877 I-0.0579 J-0.0579
G3 X20.8124 Y6.0898 I-0.0122 J-0.018
G3 X20.8081 Y6.0911 I-0.0083 J-0.0201
G1 X20.8268 Y6.1893 F10
G3 X20.7928 Y6.1926 I-0.0341 J-0.1786 F10
G3 X20.7587 Y6.1893 I0 J-0.1819
G3 X20.7349 Y6.1822 I0.0228 J-0.1196
G3 X20.7131 Y6.1704 I0.0466 J-0.1125
G3 X20.6867 Y6.1486 I0.1022 J-0.1504
G3 X20.6649 Y6.1223 I0.1286 J-0.1286
G3 X20.6531 Y6.1004 I0.1007 J-0.0684
G3 X20.646 Y6.0766 I0.1125 J-0.0466
G3 X20.6428 Y6.0426 I0.1786 J-0.0341
G3 X20.646 Y6.0085 I0.1819 J0
G3 X20.6531 Y5.9847 I0.1196 J0.0228
G3 X20.6649 Y5.9629 I0.1125 J0.0466
G3 X20.6867 Y5.9365 I0.1504 J0.1022
G3 X20.7131 Y5.9147 I0.1286 J0.1286
G3 X20.7349 Y5.9029 I0.0684 J0.1007
G3 X20.7587 Y5.8958 I0.0466 J0.1125
G3 X20.7928 Y5.8926 I0.0341 J0.1786
G3 X20.8268 Y5.8958 I0 J0.1819
G3 X20.8506 Y5.9029 I-0.0228 J0.1196
G3 X20.8725 Y5.9147 I-0.0466 J0.1125
G3 X20.8988 Y5.9365 I-0.1022 J0.1504
G3 X20.9207 Y5.9629 I-0.1286 J0.1286
G3 X20.9324 Y5.9847 I-0.1007 J0.0684
G3 X20.9395 Y6.0085 I-0.1125 J0.0466
G3 X20.9428 Y6.0426 I-0.1786 J0.0341
G3 X20.9395 Y6.0766 I-0.1819 J0
G3 X20.9324 Y6.1004 I-0.1196 J-0.0228
G3 X20.9207 Y6.1223 I-0.1125 J-0.0466
G3 X20.8988 Y6.1486 I-0.1504 J-0.1022
G3 X20.8725 Y6.1704 I-0.1286 J-0.1286
G3 X20.8506 Y6.1822 I-0.0684 J-0.1007
G3 X20.8268 Y6.1893 I-0.0466 J-0.1125
G1 X20.8456 Y6.2876 F10
G3 X20.7928 Y6.2926 I-0.0528 J-0.2769 F10
G3 X20.74 Y6.2876 I0 J-0.2819
G3 X20.6966 Y6.2746 I0.0415 J-0.2178
G3 X20.6569 Y6.2531 I0.0849 J-0.2049
G3 X20.616 Y6.2193 I0.1584 J-0.2331
G3 X20.5822 Y6.1785 I0.1993 J-0.1993
G3 X20.5607 Y6.1387 I0.1834 J-0.1246
G3 X20.5478 Y6.0954 I0.2049 J-0.0849
G3 X20.5428 Y6.0426 I0.2769 J-0.0528
G3 X20.5478 Y5.9897 I0.2819 J0
G3 X20.5607 Y5.9464 I0.2178 J0.0415
G3 X20.5822 Y5.9067 I0.2049 J0.0849
G3 X20.616 Y5.8658 I0.2331 J0.1584
G3 X20.6569 Y5.832 I0.1993 J0.1993
G3 X20.6966 Y5.8105 I0.1246 J0.1834
G3 X20.74 Y5.7976 I0.0849 J0.2049
G3 X20.7928 Y5.7926 I0.0528 J0.2769
G3 X20.8456 Y5.7976 I0 J0.2819
G3 X20.8889 Y5.8105 I-0.0415 J0.2178
G3 X20.9287 Y5.832 I-0.0849 J0.2049
G3 X20.9695 Y5.8658 I-0.1584 J0.2331
G3 X21.0034 Y5.9067 I-0.1993 J0.1993
G3 X21.0248 Y5.9464 I-0.1834 J0.1246
G3 X21.0378 Y5.9897 I-0.2049 J0.0849
G3 X21.0428 Y6.0426 I-0.2769 J0.0528
G3 X21.0378 Y6.0954 I-0.2819 J0
G3 X21.0248 Y6.1387 I-0.2178 J-0.0415
G3 X21.0034 Y6.1785 I-0.2049 J-0.0849
G3 X20.9695 Y6.2193 I-0.2331 J-0.1584
G3 X20.9287 Y6.2531 I-0.1993 J-0.1993
G3 X20.8889 Y6.2746 I-0.1246 J-0.1834
G3 X20.8456 Y6.2876 I-0.0849 J-0.2049
G0 Z0.5
G0 X6.2952 Y6.0911
G1 Z-0.1 F30
G3 X6.2798 Y6.0926 I-0.0153 J-0.0804 F10
G3 X6.2645 Y6.0911 I0 J-0.0819
G3 X6.2602 Y6.0898 I0.0041 J-0.0214
G3 X6.2563 Y6.0877 I0.0083 J-0.0201
G3 X6.2445 Y6.0779 I0.046 J-0.0677
G3 X6.2346 Y6.066 I0.0579 J-0.0579
G3 X6.2325 Y6.0621 I0.018 J-0.0122
G3 X6.2313 Y6.0579 I0.0201 J-0.0083
G3 X6.2298 Y6.0426 I0.0804 J-0.0153
G3 X6.2313 Y6.0272 I0.0819 J0
G3 X6.2325 Y6.023 I0.0214 J0.0041
G3 X6.2346 Y6.0191 I0.0201 J0.0083
G3 X6.2445 Y6.0072 I0.0677 J0.046
G3 X6.2563 Y5.9974 I0.0579 J0.0579
G3 X6.2602 Y5.9953 I0.0122 J0.018
G3 X6.2645 Y5.994 I0.0083 J0.0201
G3 X6.2798 Y5.9926 I0.0153 J0.0804
G3 X6.2952 Y5.994 I0 J0.0819
G3 X6.2994 Y5.9953 I-0.0041 J0.0214
G3 X6.3033 Y5.9974 I-0.0083 J0.0201
G3 X6.3152 Y6.0072 I-0.046 J0.0677
G3 X6.325 Y6.0191 I-0.0579 J0.0579
G3 X6.3271 Y6.023 I-0.018 J0.0122
G3 X6.3284 Y6.0272 I-0.0201 J0.0083
G3 X6.3298 Y6.0426 I-0.0804 J0.0153
G3 X6.3284 Y6.0579 I-0.0819 J0
G3 X6.3271 Y6.0621 I-0.0214 J-0.0041
G3 X6.325 Y6.066 I-0.0201 J-0.0083
G3 X6.3152 Y6.0779 I-0.0677 J-0.046
G3 X6.3033 Y6.0877 I-0.0579 J-0.0579
G3 X6.2994 Y6.0898 I-0.0122 J-0.018
G3 X6.2952 Y6.0911 I-0.0083 J-0.0201
G1 X6.3139 Y6.1893 F10
G3 X6.2798 Y6.1926 I-0.0341 J-0.1786 F10
G3 X6.2457 Y6.1893 I0 J-0.1819
G3 X6.222 Y6.1822 I0.0228 J-0.1196
G3 X6.2001 Y6.1704 I0.0466 J-0.1125
G3 X6.1738 Y6.1486 I0.1022 J-0.1504
G3 X6.1519 Y6.1223 I0.1286 J-0.1286
G3 X6.1402 Y6.1004 I0.1007 J-0.0684
G3 X6.133 Y6.0766 I0.1125 J-0.0466
G3 X6.1298 Y6.0426 I0.1786 J-0.0341
G3 X6.133 Y6.0085 I0.1819 J0
G3 X6.1402 Y5.9847 I0.1196 J0.0228
G3 X6.1519 Y5.9629 I0.1125 J0.0466
G3 X6.1738 Y5.9365 I0.1504 J0.1022
G3 X6.2001 Y5.9147 I0.1286 J0.1286
G3 X6.222 Y5.9029 I0.0684 J0.1007
G3 X6.2457 Y5.8958 I0.0466 J0.1125
G3 X6.2798 Y5.8926 I0.0341 J0.1786
G3 X6.3139 Y5.8958 I0 J0.1819
G3 X6.3377 Y5.9029 I-0.0228 J0.1196
G3 X6.3595 Y5.9147 I-0.0466 J0.1125
G3 X6.3859 Y5.9365 I-0.1022 J0.1504
G3 X6.4077 Y5.9629 I-0.1286 J0.1286
G3 X6.4195 Y5.9847 I-0.1007 J0.0684
G3 X6.4266 Y6.0085 I-0.1125 J0.0466
G3 X6.4298 Y6.0426 I-0.1786 J0.0341
G3 X6.4266 Y6.0766 I-0.1819 J0
G3 X6.4195 Y6.1004 I-0.1196 J-0.0228
G3 X6.4077 Y6.1223 I-0.1125 J-0.0466
G3 X6.3859 Y6.1486 I-0.1504 J-0.1022
G3 X6.3595 Y6.1704 I-0.1286 J-0.1286
G3 X6.3377 Y6.1822 I-0.0684 J-0.1007
G3 X6.3139 Y6.1893 I-0.0466 J-0.1125
G1 X6.3326 Y6.2876 F10
G3 X6.2798 Y6.2926 I-0.0528 J-0.2769 F10
G3 X6.227 Y6.2876 I0 J-0.2819
G3 X6.1837 Y6.2746 I0.0415 J-0.2178
G3 X6.1439 Y6.2531 I0.0849 J-0.2049
G3 X6.103 Y6.2193 I0.1584 J-0.2331
G3 X6.0692 Y6.1785 I0.1993 J-0.1993
G3 X6.0478 Y6.1387 I0.1834 J-0.1246
G3 X6.0348 Y6.0954 I0.2049 J-0.0849
G3 X6.0298 Y6.0426 I0.2769 J-0.0528
G3 X6.0348 Y5.9897 I0.2819 J0
G3 X6.0478 Y5.9464 I0.2178 J0.0415
G3 X6.0692 Y5.9067 I0.2049 J0.0849
G3 X6.103 Y5.8658 I0.2331 J0.1584
G3 X6.1439 Y5.832 I0.1993 J0.1993
G3 X6.1837 Y5.8105 I0.1246 J0.1834
G3 X6.227 Y5.7976 I0.0849 J0.2049
G3 X6.2798 Y5.7926 I0.0528 J0.2769
G3 X6.3326 Y5.7976 I0 J0.2819
G3 X6.3759 Y5.8105 I-0.0415 J0.2178
G3 X6.4157 Y5.832 I-0.0849 J0.2049
G3 X6.4566 Y5.8658 I-0.1584 J0.2331
G3 X6.4904 Y5.9067 I-0.1993 J0.1993
G3 X6.5119 Y5.9464 I-0.1834 J0.1246
G3 X6.5248 Y5.9897 I-0.2049 J0.0849
G3 X6.5298 Y6.0426 I-0.2769 J0.0528
G3 X6.5248 Y6.0954 I-0.2819 J0
G3 X6.5119 Y6.1387 I-0.2178 J-0.0415
G3 X6.4904 Y6.1785 I-0.2049 J-0.0849
G3 X6.4566 Y6.2193 I-0.2331 J-0.1584
G3 X6.4157 Y6.2531 I-0.1993 J-0.1993
G3 X6.3759 Y6.2746 I-0.1246 J-0.1834
G3 X6.3326 Y6.2876 I-0.0849 J-0.2049
G0 Z0.5
G0 X9.5753 Y2.6784
G1 Z-0.1 F30
G3 X9.5851 Y2.6665 I0.0677 J0.046 F10
G3 X9.597 Y2.6567 I0.0579 J0.0579
G3 X9.6009 Y2.6546 I0.0122 J0.018
G3 X9.6051 Y2.6533 I0.0083 J0.0201
G3 X9.6205 Y2.6519 I0.0153 J0.0804
G3 X9.6358 Y2.6533 I0 J0.0819
G3 X9.6401 Y2.6546 I-0.0041 J0.0214
G3 X9.644 Y2.6567 I-0.0083 J0.0201
G3 X9.6558 Y2.6665 I-0.046 J0.0677
G3 X9.6657 Y2.6784 I-0.0579 J0.0579
G3 X9.6678 Y2.6823 I-0.018 J0.0122
G3 X9.669 Y2.6866 I-0.0201 J0.0083
G3 X9.6705 Y2.7019 I-0.0804 J0.0153
G3 X9.669 Y2.7172 I-0.0819 J0
G3 X9.6678 Y2.7215 I-0.0214 J-0.0041
G3 X9.6657 Y2.7254 I-0.0201 J-0.0083
G3 X9.6558 Y2.7373 I-0.0677 J-0.046
G3 X9.644 Y2.7471 I-0.0579 J-0.0579
G3 X9.6401 Y2.7492 I-0.0122 J-0.018
G3 X9.6358 Y2.7504 I-0.0083 J-0.0201
G3 X9.6205 Y2.7519 I-0.0153 J-0.0804
G3 X9.6051 Y2.7504 I0 J-0.0819
G3 X9.6009 Y2.7492 I0.0041 J-0.0214
G3 X9.597 Y2.7471 I0.0083 J-0.0201
G3 X9.5851 Y2.7373 I0.046 J-0.0677
G3 X9.5753 Y2.7254 I0.0579 J-0.0579
G3 X9.5732 Y2.7215 I0.018 J-0.0122
G3 X9.5719 Y2.7172 I0.0201 J-0.0083
G3 X9.5705 Y2.7019 I0.0804 J-0.0153
G3 X9.5719 Y2.6866 I0.0819 J0
G3 X9.5732 Y2.6823 I0.0214 J0.0041
G3 X9.5753 Y2.6784 I0.0201 J0.0083
G1 X9.4926 Y2.6222 F10
G3 X9.5144 Y2.5958 I0.1504 J0.1022 F10
G3 X9.5408 Y2.574 I0.1286 J0.1286
G3 X9.5626 Y2.5622 I0.0684 J0.1007
G3 X9.5864 Y2.5551 I0.0466 J0.1125
G3 X9.6205 Y2.5519 I0.0341 J0.1786
G3 X9.6546 Y2.5551 I0 J0.1819
G3 X9.6783 Y2.5622 I-0.0228 J0.1196
G3 X9.7002 Y2.574 I-0.0466 J0.1125
G3 X9.7265 Y2.5958 I-0.1022 J0.1504
G3 X9.7484 Y2.6222 I-0.1286 J0.1286
G3 X9.7602 Y2.644 I-0.1007 J0.0684
G3 X9.7673 Y2.6678 I-0.1125 J0.0466
G3 X9.7705 Y2.7019 I-0.1786 J0.0341
G3 X9.7673 Y2.736 I-0.1819 J0
G3 X9.7602 Y2.7597 I-0.1196 J-0.0228
G3 X9.7484 Y2.7816 I-0.1125 J-0.0466
G3 X9.7265 Y2.808 I-0.1504 J-0.1022
G3 X9.7002 Y2.8298 I-0.1286 J-0.1286
G3 X9.6783 Y2.8416 I-0.0684 J-0.1007
G3 X9.6546 Y2.8487 I-0.0466 J-0.1125
G3 X9.6205 Y2.8519 I-0.0341 J-0.1786
G3 X9.5864 Y2.8487 I0 J-0.1819
G3 X9.5626 Y2.8416 I0.0228 J-0.1196
G3 X9.5408 Y2.8298 I0.0466 J-0.1125
G3 X9.5144 Y2.808 I0.1022 J-0.1504
G3 X9.4926 Y2.7816 I0.1286 J-0.1286
G3 X9.4808 Y2.7597 I0.1007 J-0.0684
G3 X9.4737 Y2.736 I0.1125 J-0.0466
G3 X9.4705 Y2.7019 I0.1786 J-0.0341
G3 X9.4737 Y2.6678 I0.1819 J0
G3 X9.4808 Y2.644 I0.1196 J0.0228
G3 X9.4926 Y2.6222 I0.1125 J0.0466
G1 X9.4099 Y2.566 F10
G3 X9.4437 Y2.5251 I0.2331 J0.1584 F10
G3 X9.4846 Y2.4913 I0.1993 J0.1993
G3 X9.5244 Y2.4698 I0.1246 J0.1834
G3 X9.5677 Y2.4569 I0.0849 J0.2049
G3 X9.6205 Y2.4519 I0.0528 J0.2769
G3 X9.6733 Y2.4569 I0 J0.2819
G3 X9.7166 Y2.4698 I-0.0415 J0.2178
G3 X9.7564 Y2.4913 I-0.0849 J0.2049
G3 X9.7973 Y2.5251 I-0.1584 J0.2331
G3 X9.8311 Y2.566 I-0.1993 J0.1993
G3 X9.8525 Y2.6058 I-0.1834 J0.1246
G3 X9.8655 Y2.6491 I-0.2049 J0.0849
G3 X9.8705 Y2.7019 I-0.2769 J0.0528
G3 X9.8655 Y2.7547 I-0.2819 J0
G3 X9.8525 Y2.798 I-0.2178 J-0.0415
G3 X9.8311 Y2.8378 I-0.2049 J-0.0849
G3 X9.7973 Y2.8787 I-0.2331 J-0.1584
G3 X9.7564 Y2.9125 I-0.1993 J-0.1993
G3 X9.7166 Y2.934 I-0.1246 J-0.1834
G3 X9.6733 Y2.9469 I-0.0849 J-0.2049
G3 X9.6205 Y2.9519 I-0.0528 J-0.2769
G3 X9.5677 Y2.9469 I0 J-0.2819
G3 X9.5244 Y2.934 I0.0415 J-0.2178
G3 X9.4846 Y2.9125 I0.0849 J-0.2049
G3 X9.4437 Y2.8787 I0.1584 J-0.2331
G3 X9.4099 Y2.8378 I0.1993 J-0.1993
G3 X9.3884 Y2.798 I0.1834 J-0.1246
G3 X9.3755 Y2.7547 I0.2049 J-0.0849
G3 X9.3705 Y2.7019 I0.2769 J-0.0528
G3 X9.3755 Y2.6491 I0.2819 J0
G3 X9.3884 Y2.6058 I0.2178 J0.0415
G3 X9.4099 Y2.566 I0.2049 J0.0849
G0 Z0.5
G0 X17.4021 Y2.7019
G1 Z-0.2 F30
G3 X17.4036 Y2.6866 I0.0819 J0 F10
G3 X17.4048 Y2.6823 I0.0214 J0.0041
G3 X17.4069 Y2.6784 I0.0201 J0.0083
G3 X17.4168 Y2.6665 I0.0677 J0.046
G3 X17.4286 Y2.6567 I0.0579 J0.0579
G3 X17.4325 Y2.6546 I0.0122 J0.018
G3 X17.4368 Y2.6533 I0.0083 J0.0201
G3 X17.4521 Y2.6519 I0.0153 J0.0804
G3 X17.4674 Y2.6533 I0 J0.0819
G3 X17.4717 Y2.6546 I-0.0041 J0.0214
G3 X17.4756 Y2.6567 I-0.0083 J0.0201
G3 X17.4875 Y2.6665 I-0.046 J0.0677
G3 X17.4973 Y2.6784 I-0.0579 J0.0579
G3 X17.4994 Y2.6823 I-0.018 J0.0122
G3 X17.5007 Y2.6866 I-0.0201 J0.0083
G3 X17.5021 Y2.7019 I-0.0804 J0.0153
G3 X17.5007 Y2.7172 I-0.0819 J0
G3 X17.4994 Y2.7215 I-0.0214 J-0.0041
G3 X17.4973 Y2.7254 I-0.0201 J-0.0083
G3 X17.4875 Y2.7373 I-0.0677 J-0.046
G3 X17.4756 Y2.7471 I-0.0579 J-0.0579
G3 X17.4717 Y2.7492 I-0.0122 J-0.018
G3 X17.4674 Y2.7504 I-0.0083 J-0.0201
G3 X17.4521 Y2.7519 I-0.0153 J-0.0804
G3 X17.4368 Y2.7504 I0 J-0.0819
G3 X17.4325 Y2.7492 I0.0041 J-0.0214
G3 X17.4286 Y2.7471 I0.0083 J-0.0201
G3 X17.4168 Y2.7373 I0.046 J-0.0677
G3 X17.4069 Y2.7254 I0.0579 J-0.0579
G3 X17.4048 Y2.7215 I0.018 J-0.0122
G3 X17.4036 Y2.7172 I0.0201 J-0.0083
G3 X17.4021 Y2.7019 I0.0804 J-0.0153
G1 X17.3021 Y2.7019 F10
G3 X17.3053 Y2.6678 I0.1819 J0 F10
G3 X17.3124 Y2.644 I0.1196 J0.0228
G3 X17.3242 Y2.6222 I0.1125 J0.0466
G3 X17.346 Y2.5958 I0.1504 J0.1022
G3 X17.3724 Y2.574 I0.1286 J0.1286
G3 X17.3943 Y2.5622 I0.0684 J0.1007
G3 X17.418 Y2.5551 I0.0466 J0.1125
G3 X17.4521 Y2.5519 I0.0341 J0.1786
G3 X17.4862 Y2.5551 I0 J0.1819
G3 X17.51 Y2.5622 I-0.0228 J0.1196
G3 X17.5318 Y2.574 I-0.0466 J0.1125
G3 X17.5582 Y2.5958 I-0.1022 J0.1504
G3 X17.58 Y2.6222 I-0.1286 J0.1286
G3 X17.5918 Y2.644 I-0.1007 J0.0684
G3 X17.5989 Y2.6678 I-0.1125 J0.0466
G3 X17.6021 Y2.7019 I-0.1786 J0.0341
G3 X17.5989 Y2.736 I-0.1819 J0
G3 X17.5918 Y2.7597 I-0.1196 J-0.0228
G3 X17.58 Y2.7816 I-0.1125 J-0.0466
G3 X17.5582 Y2.808 I-0.1504 J-0.1022
G3 X17.5318 Y2.8298 I-0.1286 J-0.1286
G3 X17.51 Y2.8416 I-0.0684 J-0.1007
G3 X17.4862 Y2.8487 I-0.0466 J-0.1125
G3 X17.4521 Y2.8519 I-0.0341 J-0.1786
G3 X17.418 Y2.8487 I0 J-0.1819
G3 X17.3943 Y2.8416 I0.0228 J-0.1196
G3 X17.3724 Y2.8298 I0.0466 J-0.1125
G3 X17.346 Y2.808 I0.1022 J-0.1504
G3 X17.3242 Y2.7816 I0.1286 J-0.1286
G3 X17.3124 Y2.7597 I0.1007 J-0.0684
G3 X17.3053 Y2.736 I0.1125 J-0.0466
G3 X17.3021 Y2.7019 I0.1786 J-0.0341
G1 X17.2021 Y2.7019 F10
G3 X17.2071 Y2.6491 I0.2819 J0 F10
G3 X17.2201 Y2.6058 I0.2178 J0.0415
G3 X17.2415 Y2.566 I0.2049 J0.0849
G3 X17.2753 Y2.5251 I0.2331 J0.1584
G3 X17.3162 Y2.4913 I0.1993 J0.1993
G3 X17.356 Y2.4698 I0.1246 J0.1834
G3 X17.3993 Y2.4569 I0.0849 J0.2049
G3 X17.4521 Y2.4519 I0.0528 J0.2769
G3 X17.5049 Y2.4569 I0 J0.2819
G3 X17.5482 Y2.4698 I-0.0415 J0.2178
G3 X17.588 Y2.4913 I-0.0849 J0.2049
G3 X17.6289 Y2.5251 I-0.1584 J0.2331
G3 X17.6627 Y2.566 I-0.1993 J0.1993
G3 X17.6842 Y2.6058 I-0.1834 J0.1246
G3 X17.6971 Y2.6491 I-0.2049 J0.0849
G3 X17.7021 Y2.7019 I-0.2769 J0.0528
G3 X17.6971 Y2.7547 I-0.2819 J0
G3 X17.6842 Y2.798 I-0.2178 J-0.0415
G3 X17.6627 Y2.8378 I-0.2049 J-0.0849
G3 X17.6289 Y2.8787 I-0.2331 J-0.1584
G3 X17.588 Y2.9125 I-0.1993 J-0.1993
G3 X17.5482 Y2.934 I-0.1246 J-0.1834
G3 X17.5049 Y2.9469 I-0.0849 J-0.2049
G3 X17.4521 Y2.9519 I-0.0528 J-0.2769
G3 X17.3993 Y2.9469 I0 J-0.2819
G3 X17.356 Y2.934 I0.0415 J-0.2178
G3 X17.3162 Y2.9125 I0.0849 J-0.2049
G3 X17.2753 Y2.8787 I0.1584 J-0.2331
G3 X17.2415 Y2.8378 I0.1993 J-0.1993
G3 X17.2201 Y2.798 I0.1834 J-0.1246
G3 X17.2071 Y2.7547 I0.2049 J-0.0849
G3 X17.2021 Y2.7019 I0.2769 J-0.0528
G0 Z0.5
G0 X20.8081 Y6.0911
G1 Z-0.2 F30
G3 X20.7928 Y6.0926 I-0.0153 J-0.0804 F10
G3 X20.7774 Y6.0911 I0 J-0.0819
G3 X20.7732 Y6.0898 I0.0041 J-0.0214
G3 X20.7693 Y6.0877 I0.0083 J-0.0201
G3 X20.7574 Y6.0779 I0.046 J-0.0677
G3 X20.7476 Y6.066 I0.0579 J-0.0579
G3 X20.7455 Y6.0621 I0.018 J-0.0122
G3 X20.7442 Y6.0579 I0.0201 J-0.0083
G3 X20.7428 Y6.0426 I0.0804 J-0.0153
G3 X20.7442 Y6.0272 I0.0819 J0
G3 X20.7455 Y6.023 I0.0214 J0.0041
G3 X20.7476 Y6.0191 I0.0201 J0.0083
G3 X20.7574 Y6.0072 I0.0677 J0.046
G3 X20.7693 Y5.9974 I0.0579 J0.0579
G3 X20.7732 Y5.9953 I0.0122 J0.018
G3 X20.7774 Y5.994 I0.0083 J0.0201
G3 X20.7928 Y5.9926 I0.0153 J0.0804
G3 X20.8081 Y5.994 I0 J0.0819
G3 X20.8124 Y5.9953 I-0.0041 J0.0214
G3 X20.8163 Y5.9974 I-0.0083 J0.0201
G3 X20.8281 Y6.0072 I-0.046 J0.0677
G3 X20.8379 Y6.0191 I-0.0579 J0.0579
G3 X20.8401 Y6.023 I-0.018 J0.0122
G3 X20.8413 Y6.0272 I-0.0201 J0.0083
G3 X20.8428 Y6.0426 I-0.0804 J0.0153
G3 X20.8413 Y6.0579 I-0.0819 J0
G3 X20.8401 Y6.0621 I-0.0214 J-0.0041
G3 X20.8379 Y6.066 I-0.0201 J-0.0083
G3 X20.8281 Y6.0779 I-0.0677 J-0.046
G3 X20.8163 Y6.0877 I-0.0579 J-0.0579
G3 X20.8124 Y6.0898 I-0.0122 J-0.018
G3 X20.8081 Y6.0911 I-0.0083 J-0.0201
G1 X20.8268 Y6.1893 F10
G3 X20.7928 Y6.1926 I-0.0341 J-0.1786 F10
G3 X20.7587 Y6.1893 I0 J-0.1819
G3 X20.7349 Y6.1822 I0.0228 J-0.1196
G3 X20.7131 Y6.1704 I0.0466 J-0.1125
G3 X20.6867 Y6.1486 I0.1022 J-0.1504
G3 X20.6649 Y6.1223 I0.1286 J-0.1286
G3 X20.6531 Y6.1004 I0.1007 J-0.0684
G3 X20.646 Y6.0766 I0.1125 J-0.0466
G3 X20.6428 Y6.0426 I0.1786 J-0.0341
G3 X20.646 Y6.0085 I0.1819 J0
G3 X20.6531 Y5.9847 I0.1196 J0.0228
G3 X20.6649 Y5.9629 I0.1125 J0.0466
G3 X20.6867 Y5.9365 I0.1504 J0.1022
G3 X20.7131 Y5.9147 I0.1286 J0.1286
G3 X20.7349 Y5.9029 I0.0684 J0.1007
G3 X20.7587 Y5.8958 I0.0466 J0.1125
G3 X20.7928 Y5.8926 I0.0341 J0.1786
G3 X20.8268 Y5.8958 I0 J0.1819
G3 X20.8506 Y5.9029 I-0.0228 J0.1196
G3 X20.8725 Y5.9147 I-0.0466 J0.1125
G3 X20.8988 Y5.9365 I-0.1022 J0.1504
G3 X20.9207 Y5.9629 I-0.1286 J0.1286
G3 X20.9324 Y5.9847 I-0.1007 J0.0684
G3 X20.9395 Y6.0085 I-0.1125 J0.0466
G3 X20.9428 Y6.0426 I-0.1786 J0.0341
G3 X20.9395 Y6.0766 I-0.1819 J0
G3 X20.9324 Y6.1004 I-0.1196 J-0.0228
G3 X20.9207 Y6.1223 I-0.1125 J-0.0466
G3 X20.8988 Y6.1486 I-0.1504 J-0.1022
G3 X20.8725 Y6.1704 I-0.1286 J-0.1286
G3 X20.8506 Y6.1822 I-0.0684 J-0.1007
G3 X20.8268 Y6.1893 I-0.0466 J-0.1125
G1 X20.8456 Y6.2876 F10
G3 X20.7928 Y6.2926 I-0.0528 J-0.2769 F10
G3 X20.74 Y6.2876 I0 J-0.2819
G3 X20.6966 Y6.2746 I0.0415 J-0.2178
G3 X20.6569 Y6.2531 I0.0849 J-0.2049
G3 X20.616 Y6.2193 I0.1584 J-0.2331
G3 X20.5822 Y6.1785 I0.1993 J-0.1993
G3 X20.5607 Y6.1387 I0.1834 J-0.1246
G3 X20.5478 Y6.0954 I0.2049 J-0.0849
G3 X20.5428 Y6.0426 I0.2769 J-0.0528
G3 X20.5478 Y5.9897 I0.2819 J0
G3 X20.5607 Y5.9464 I0.2178 J0.0415
G3 X20.5822 Y5.9067 I0.2049 J0.0849
G3 X20.616 Y5.8658 I0.2331 J0.1584
G3 X20.6569 Y5.832 I0.1993 J0.1993
G3 X20.6966 Y5.8105 I0.1246 J0.1834
G3 X20.74 Y5.7976 I0.0849 J0.2049
G3 X20.7928 Y5.7926 I0.0528 J0.2769
G3 X20.8456 Y5.7976 I0 J0.2819
G3 X20.8889 Y5.8105 I-0.0415 J0.2178
G3 X20.9287 Y5.832 I-0.0849 J0.2049
G3 X20.9695 Y5.8658 I-0.1584 J0.2331
G3 X21.0034 Y5.9067 I-0.1993 J0.1993
G3 X21.0248 Y5.9464 I-0.1834 J0.1246
G3 X21.0378 Y5.9897 I-0.2049 J0.0849
G3 X21.0428 Y6.0426 I-0.2769 J0.0528
G3 X21.0378 Y6.0954 I-0.2819 J0
G3 X21.0248 Y6.1387 I-0.2178 J-0.0415
G3 X21.0034 Y6.1785 I-0.2049 J-0.0849
G3 X20.9695 Y6.2193 I-0.2331 J-0.1584
G3 X20.9287 Y6.2531 I-0.1993 J-0.1993
G3 X20.8889 Y6.2746 I-0.1246 J-0.1834
G3 X20.8456 Y6.2876 I-0.0849 J-0.2049
G0 Z0.5
G0 X6.2952 Y6.0911
G1 Z-0.2 F30
G3 X6.2798 Y6.0926 I-0.0153 J-0.0804 F10
G3 X6.2645 Y6.0911 I0 J-0.0819
G3 X6.2602 Y6.0898 I0.0041 J-0.0214
G3 X6.2563 Y6.0877 I0.0083 J-0.0201
G3 X6.2445 Y6.0779 I0.046 J-0.0677
G3 X6.2346 Y6.066 I0.0579 J-0.0579
G3 X6.2325 Y6.0621 I0.018 J-0.0122
G3 X6.2313 Y6.0579 I0.0201 J-0.0083
G3 X6.2298 Y6.0426 I0.0804 J-0.0153
G3 X6.2313 Y6.0272 I0.0819 J0
G3 X6.2325 Y6.023 I0.0214 J0.0041
G3 X6.2346 Y6.0191 I0.0201 J0.0083
G3 X6.2445 Y6.0072 I0.0677 J0.046
G3 X6.2563 Y5.9974 I0.0579 J0.0579
G3 X6.2602 Y5.9953 I0.0122 J0.018
G3 X6.2645 Y5.994 I0.0083 J0.0201
G3 X6.2798 Y5.9926 I0.0153 J0.0804
G3 X6.2952 Y5.994 I0 J0.0819
G3 X6.2994 Y5.9953 I-0.0041 J0.0214
G3 X6.3033 Y5.9974 I-0.0083 J0.0201
G3 X6.3152 Y6.0072 I-0.046 J0.0677
G3 X6.325 Y6.0191 I-0.0579 J0.0579
G3 X6.3271 Y6.023 I-0.018 J0.0122
G3 X6.3284 Y6.0272 I-0.0201 J0.0083
G3 X6.3298 Y6.0426 I-0.0804 J0.0153
G3 X6.3284 Y6.0579 I-0.0819 J0
G3 X6.3271 Y6.0621 I-0.0214 J-0.0041
G3 X6.325 Y6.066 I-0.0201 J-0.0083
G3 X6.3152 Y6.0779 I-0.0677 J-0.046
G3 X6.3033 Y6.0877 I-0.0579 J-0.0579
G3 X6.2994 Y6.0898 I-0.0122 J-0.018
G3 X6.2952 Y6.0911 I-0.0083 J-0.0201
G1 X6.3139 Y6.1893 F10
G3 X6.2798 Y6.1926 I-0.0341 J-0.1786 F10
G3 X6.2457 Y6.1893 I0 J-0.1819
G3 X6.222 Y6.1822 I0.0228 J-0.1196
G3 X6.2001 Y6.1704 I0.0466 J-0.1125
G3 X6.1738 Y6.1486 I0.1022 J-0.1504
G3 X6.1519 Y6.1223 I0.1286 J-0.1286
G3 X6.1402 Y6.1004 I0.1007 J-0.0684
G3 X6.133 Y6.0766 I0.1125 J-0.0466
G3 X6.1298 Y6.0426 I0.1786 J-0.0341
G3 X6.133 Y6.0085 I0.1819 J0
G3 X6.1402 Y5.9847 I0.1196 J0.0228
G3 X6.1519 Y5.9629 I0.1125 J0.0466
G3 X6.1738 Y5.9365 I0.1504 J0.1022
G3 X6.2001 Y5.9147 I0.1286 J0.1286
G3 X6.222 Y5.9029 I0.0684 J0.1007
G3 X6.2457 Y5.8958 I0.0466 J0.1125
G3 X6.2798 Y5.8926 I0.0341 J0.1786
G3 X6.3139 Y5.8958 I0 J0.1819
G3 X6.3377 Y5.9029 I-0.0228 J0.1196
G3 X6.3595 Y5.9147 I-0.0466 J0.1125
G3 X6.3859 Y5.9365 I-0.1022 J0.1504
G3 X6.4077 Y5.9629 I-0.1286 J0.1286
G3 X6.4195 Y5.9847 I-0.1007 J0.0684
G3 X6.4266 Y6.0085 I-0.1125 J0.0466
G3 X6.4298 Y6.0426 I-0.1786 J0.0341
G3 X6.4266 Y6.0766 I-0.1819 J0
G3 X6.4195 Y6.1004 I-0.1196 J-0.0228
G3 X6.4077 Y6.1223 I-0.1125 J-0.0466
G3 X6.3859 Y6.1486 I-0.1504 J-0.1022
G3 X6.3595 Y6.1704 I-0.1286 J-0.1286
G3 X6.3377 Y6.1822 I-0.0684 J-0.1007
G3 X6.3139 Y6.1893 I-0.0466 J-0.1125
G1 X6.3326 Y6.2876 F10
G3 X6.2798 Y6.2926 I-0.0528 J-0.2769 F10
G3 X6.227 Y6.2876 I0 J-0.2819
G3 X6.1837 Y6.2746 I0.0415 J-0.2178
G3 X6.1439 Y6.2531 I0.0849 J-0.2049
G3 X6.103 Y6.2193 I0.1584 J-0.2331
G3 X6.0692 Y6.1785 I0.1993 J-0.1993
G3 X6.0478 Y6.1387 I0.1834 J-0.1246
G3 X6.0348 Y6.0954 I0.2049 J-0.0849
G3 X6.0298 Y6.0426 I0.2769 J-0.0528
G3 X6.0348 Y5.9897 I0.2819 J0
G3 X6.0478 Y5.9464 I0.2178 J0.0415
G3 X6.0692 Y5.9067 I0.2049 J0.0849
G3 X6.103 Y5.8658 I0.2331 J0.1584
G3 X6.1439 Y5.832 I0.1993 J0.1993
G3 X6.1837 Y5.8105 I0.1246 J0.1834
G3 X6.227 Y5.7976 I0.0849 J0.2049
G3 X6.2798 Y5.7926 I0.0528 J0.2769
G3 X6.3326 Y5.7976 I0 J0.2819
G3 X6.3759 Y5.8105 I-0.0415 J0.2178
G3 X6.4157 Y5.832 I-0.0849 J0.2049
G3 X6.4566 Y5.8658 I-0.1584 J0.2331
G3 X6.4904 Y5.9067 I-0.1993 J0.1993
G3 X6.5119 Y5.9464 I-0.1834 J0.1246
G3 X6.5248 Y5.9897 I-0.2049 J0.0849
G3 X6.5298 Y6.0426 I-0.2769 J0.0528
G3 X6.5248 Y6.0954 I-0.2819 J0
G3 X6.5119 Y6.1387 I-0.2178 J-0.0415
G3 X6.4904 Y6.1785 I-0.2049 J-0.0849
G3 X6.4566 Y6.2193 I-0.2331 J-0.1584
G3 X6.4157 Y6.2531 I-0.1993 J-0.1993
G3 X6.3759 Y6.2746 I-0.1246 J-0.1834
G3 X6.3326 Y6.2876 I-0.0849 J-0.2049
G0 Z0.5
G0 X9.5753 Y2.6784
G1 Z-0.2 F30
G3 X9.5851 Y2.6665 I0.0677 J0.046 F10
G3 X9.597 Y2.6567 I0.0579 J0.0579
G3 X9.6009 Y2.6546 I0.0122 J0.018
G3 X9.6051 Y2.6533 I0.0083 J0.0201
G3 X9.6205 Y2.6519 I0.0153 J0.0804
G3 X9.6358 Y2.6533 I0 J0.0819
G3 X9.6401 Y2.6546 I-0.0041 J0.0214
G3 X9.644 Y2.6567 I-0.0083 J0.0201
G3 X9.6558 Y2.6665 I-0.046 J0.0677
G3 X9.6657 Y2.6784 I-0.0579 J0.0579
G3 X9.6678 Y2.6823 I-0.018 J0.0122
G3 X9.669 Y2.6866 I-0.0201 J0.0083
G3 X9.6705 Y2.7019 I-0.0804 J0.0153
G3 X9.669 Y2.7172 I-0.0819 J0
G3 X9.6678 Y2.7215 I-0.0214 J-0.0041
G3 X9.6657 Y2.7254 I-0.0201 J-0.0083
G3 X9.6558 Y2.7373 I-0.0677 J-0.046
G3 X9.644 Y2.7471 I-0.0579 J-0.0579
G3 X9.6401 Y2.7492 I-0.0122 J-0.018
G3 X9.6358 Y2.7504 I-0.0083 J-0.0201
G3 X9.6205 Y2.7519 I-0.0153 J-0.0804
G3 X9.6051 Y2.7504 I0 J-0.0819
G3 X9.6009 Y2.7492 I0.0041 J-0.0214
G3 X9.597 Y2.7471 I0.0083 J-0.0201
G3 X9.5851 Y2.7373 I0.046 J-0.0677
G3 X9.5753 Y2.7254 I0.0579 J-0.0579
G3 X9.5732 Y2.7215 I0.018 J-0.0122
G3 X9.5719 Y2.7172 I0.0201 J-0.0083
G3 X9.5705 Y2.7019 I0.0804 J-0.0153
G3 X9.5719 Y2.6866 I0.0819 J0
G3 X9.5732 Y2.6823 I0.0214 J0.0041
G3 X9.5753 Y2.6784 I0.0201 J0.0083
G1 X9.4926 Y2.6222 F10
G3 X9.5144 Y2.5958 I0.1504 J0.1022 F10
G3 X9.5408 Y2.574 I0.1286 J0.1286
G3 X9.5626 Y2.5622 I0.0684 J0.1007
G3 X9.5864 Y2.5551 I0.0466 J0.1125
G3 X9.6205 Y2.5519 I0.0341 J0.1786
G3 X9.6546 Y2.5551 I0 J0.1819
G3 X9.6783 Y2.5622 I-0.0228 J0.1196
G3 X9.7002 Y2.574 I-0.0466 J0.1125
G3 X9.7265 Y2.5958 I-0.1022 J0.1504
G3 X9.7484 Y2.6222 I-0.1286 J0.1286
G3 X9.7602 Y2.644 I-0.1007 J0.0684
G3 X9.7673 Y2.6678 I-0.1125 J0.0466
G3 X9.7705 Y2.7019 I-0.1786 J0.0341
G3 X9.7673 Y2.736 I-0.1819 J0
G3 X9.7602 Y2.7597 I-0.1196 J-0.0228
G3 X9.7484 Y2.7816 I-0.1125 J-0.0466
G3 X9.7265 Y2.808 I-0.1504 J-0.1022
G3 X9.7002 Y2.8298 I-0.1286 J-0.1286
G3 X9.6783 Y2.8416 I-0.0684 J-0.1007
G3 X9.6546 Y2.8487 I-0.0466 J-0.1125
G3 X9.6205 Y2.8519 I-0.0341 J-0.1786
G3 X9.5864 Y2.8487 I0 J-0.1819
G3 X9.5626 Y2.8416 I0.0228 J-0.1196
G3 X9.5408 Y2.8298 I0.0466 J-0.1125
G3 X9.5144 Y2.808 I0.1022 J-0.1504
G3 X9.4926 Y2.7816 I0.1286 J-0.1286
G3 X9.4808 Y2.7597 I0.1007 J-0.0684
G3 X9.4737 Y2.736 I0.1125 J-0.0466
G3 X9.4705 Y2.7019 I0.1786 J-0.0341
G3 X9.4737 Y2.6678 I0.1819 J0
G3 X9.4808 Y2.644 I0.1196 J0.0228
G3 X9.4926 Y2.6222 I0.1125 J0.0466
G1 X9.4099 Y2.566 F10
G3 X9.4437 Y2.5251 I0.2331 J0.1584 F10
G3 X9.4846 Y2.4913 I0.1993 J0.1993
G3 X9.5244 Y2.4698 I0.1246 J0.1834
G3 X9.5677 Y2.4569 I0.0849 J0.2049
G3 X9.6205 Y2.4519 I0.0528 J0.2769
G3 X9.6733 Y2.4569 I0 J0.2819
G3 X9.7166 Y2.4698 I-0.0415 J0.2178
G3 X9.7564 Y2.4913 I-0.0849 J0.2049
G3 X9.7973 Y2.5251 I-0.1584 J0.2331
G3 X9.8311 Y2.566 I-0.1993 J0.1993
G3 X9.8525 Y2.6058 I-0.1834 J0.1246
G3 X9.8655 Y2.6491 I-0.2049 J0.0849
G3 X9.8705 Y2.7019 I-0.2769 J0.0528
G3 X9.8655 Y2.7547 I-0.2819 J0
G3 X9.8525 Y2.798 I-0.2178 J-0.0415
G3 X9.8311 Y2.8378 I-0.2049 J-0.0849
G3 X9.7973 Y2.8787 I-0.2331 J-0.1584
G3 X9.7564 Y2.9125 I-0.1993 J-0.1993
G3 X9.7166 Y2.934 I-0.1246 J-0.1834
G3 X9.6733 Y2.9469 I-0.0849 J-0.2049
G3 X9.6205 Y2.9519 I-0.0528 J-0.2769
G3 X9.5677 Y2.9469 I0 J-0.2819
G3 X9.5244 Y2.934 I0.0415 J-0.2178
G3 X9.4846 Y2.9125 I0.0849 J-0.2049
G3 X9.4437 Y2.8787 I0.1584 J-0.2331
G3 X9.4099 Y2.8378 I0.1993 J-0.1993
G3 X9.3884 Y2.798 I0.1834 J-0.1246
G3 X9.3755 Y2.7547 I0.2049 J-0.0849
G3 X9.3705 Y2.7019 I0.2769 J-0.0528
G3 X9.3755 Y2.6491 I0.2819 J0
G3 X9.3884 Y2.6058 I0.2178 J0.0415
G3 X9.4099 Y2.566 I0.2049 J0.0849
G0 Z0.5
G0 X17.4021 Y2.7019
G1 Z-0.25 F30
G3 X17.4036 Y2.6866 I0.0819 J0 F10
G3 X17.4048 Y2.6823 I0.0214 J0.0041
G3 X17.4069 Y2.6784 I0.0201 J0.0083
G3 X17.4168 Y2.6665 I0.0677 J0.046
G3 X17.4286 Y2.6567 I0.0579 J0.0579
G3 X17.4325 Y2.6546 I0.0122 J0.018
G3 X17.4368 Y2.6533 I0.0083 J0.0201
G3 X17.4521 Y2.6519 I0.0153 J0.0804
G3 X17.4674 Y2.6533 I0 J0.0819
G3 X17.4717 Y2.6546 I-0.0041 J0.0214
G3 X17.4756 Y2.6567 I-0.0083 J0.0201
G3 X17.4875 Y2.6665 I-0.046 J0.0677
G3 X17.4973 Y2.6784 I-0.0579 J0.0579
G3 X17.4994 Y2.6823 I-0.018 J0.0122
G3 X17.5007 Y2.6866 I-0.0201 J0.0083
G3 X17.5021 Y2.7019 I-0.0804 J0.0153
G3 X17.5007 Y2.7172 I-0.0819 J0
G3 X17.4994 Y2.7215 I-0.0214 J-0.0041
G3 X17.4973 Y2.7254 I-0.0201 J-0.0083
G3 X17.4875 Y2.7373 I-0.0677 J-0.046
G3 X17.4756 Y2.7471 I-0.0579 J-0.0579
G3 X17.4717 Y2.7492 I-0.0122 J-0.018
G3 X17.4674 Y2.7504 I-0.0083 J-0.0201
G3 X17.4521 Y2.7519 I-0.0153 J-0.0804
G3 X17.4368 Y2.7504 I0 J-0.0819
G3 X17.4325 Y2.7492 I0.0041 J-0.0214
G3 X17.4286 Y2.7471 I0.0083 J-0.0201
G3 X17.4168 Y2.7373 I0.046 J-0.0677
G3 X17.4069 Y2.7254 I0.0579 J-0.0579
G3 X17.4048 Y2.7215 I0.018 J-0.0122
G3 X17.4036 Y2.7172 I0.0201 J-0.0083
G3 X17.4021 Y2.7019 I0.0804 J-0.0153
G1 X17.3021 Y2.7019 F10
G3 X17.3053 Y2.6678 I0.1819 J0 F10
G3 X17.3124 Y2.644 I0.1196 J0.0228
G3 X17.3242 Y2.6222 I0.1125 J0.0466
G3 X17.346 Y2.5958 I0.1504 J0.1022
G3 X17.3724 Y2.574 I0.1286 J0.1286
G3 X17.3943 Y2.5622 I0.0684 J0.1007
G3 X17.418 Y2.5551 I0.0466 J0.1125
G3 X17.4521 Y2.5519 I0.0341 J0.1786
G3 X17.4862 Y2.5551 I0 J0.1819
G3 X17.51 Y2.5622 I-0.0228 J0.1196
G3 X17.5318 Y2.574 I-0.0466 J0.1125
G3 X17.5582 Y2.5958 I-0.1022 J0.1504
G3 X17.58 Y2.6222 I-0.1286 J0.1286
G3 X17.5918 Y2.644 I-0.1007 J0.0684
G3 X17.5989 Y2.6678 I-0.1125 J0.0466
G3 X17.6021 Y2.7019 I-0.1786 J0.0341
G3 X17.5989 Y2.736 I-0.1819 J0
G3 X17.5918 Y2.7597 I-0.1196 J-0.0228
G3 X17.58 Y2.7816 I-0.1125 J-0.0466
G3 X17.5582 Y2.808 I-0.1504 J-0.1022
G3 X17.5318 Y2.8298 I-0.1286 J-0.1286
G3 X17.51 Y2.8416 I-0.0684 J-0.1007
G3 X17.4862 Y2.8487 I-0.0466 J-0.1125
G3 X17.4521 Y2.8519 I-0.0341 J-0.1786
G3 X17.418 Y2.8487 I0 J-0.1819
G3 X17.3943 Y2.8416 I0.0228 J-0.1196
G3 X17.3724 Y2.8298 I0.0466 J-0.1125
G3 X17.346 Y2.808 I0.1022 J-0.1504
G3 X17.3242 Y2.7816 I0.1286 J-0.1286
G3 X17.3124 Y2.7597 I0.1007 J-0.0684
G3 X17.3053 Y2.736 I0.1125 J-0.0466
G3 X17.3021 Y2.7019 I0.1786 J-0.0341
G1 X17.2021 Y2.7019 F10
G3 X17.2071 Y2.6491 I0.2819 J0 F10
G3 X17.2201 Y2.6058 I0.2178 J0.0415
G3 X17.2415 Y2.566 I0.2049 J0.0849
G3 X17.2753 Y2.5251 I0.2331 J0.1584
G3 X17.3162 Y2.4913 I0.1993 J0.1993
G3 X17.356 Y2.4698 I0.1246 J0.1834
G3 X17.3993 Y2.4569 I0.0849 J0.2049
G3 X17.4521 Y2.4519 I0.0528 J0.2769
G3 X17.5049 Y2.4569 I0 J0.2819
G3 X17.5482 Y2.4698 I-0.0415 J0.2178
G3 X17.588 Y2.4913 I-0.0849 J0.2049
G3 X17.6289 Y2.5251 I-0.1584 J0.2331
G3 X17.6627 Y2.566 I-0.1993 J0.1993
G3 X17.6842 Y2.6058 I-0.1834 J0.1246
G3 X17.6971 Y2.6491 I-0.2049 J0.0849
G3 X17.7021 Y2.7019 I-0.2769 J0.0528
G3 X17.6971 Y2.7547 I-0.2819 J0
G3 X17.6842 Y2.798 I-0.2178 J-0.0415
G3 X17.6627 Y2.8378 I-0.2049 J-0.0849
G3 X17.6289 Y2.8787 I-0.2331 J-0.1584
G3 X17.588 Y2.9125 I-0.1993 J-0.1993
G3 X17.5482 Y2.934 I-0.1246 J-0.1834
G3 X17.5049 Y2.9469 I-0.0849 J-0.2049
G3 X17.4521 Y2.9519 I-0.0528 J-0.2769
G3 X17.3993 Y2.9469 I0 J-0.2819
G3 X17.356 Y2.934 I0.0415 J-0.2178
G3 X17.3162 Y2.9125 I0.0849 J-0.2049
G3 X17.2753 Y2.8787 I0.1584 J-0.2331
G3 X17.2415 Y2.8378 I0.1993 J-0.1993
G3 X17.2201 Y2.798 I0.1834 J-0.1246
G3 X17.2071 Y2.7547 I0.2049 J-0.0849
G3 X17.2021 Y2.7019 I0.2769 J-0.0528
G0 Z0.5
G0 X20.8081 Y6.0911
G1 Z-0.25 F30
G3 X20.7928 Y6.0926 I-0.0153 J-0.0804 F10
G3 X20.7774 Y6.0911 I0 J-0.0819
G3 X20.7732 Y6.0898 I0.0041 J-0.0214
G3 X20.7693 Y6.0877 I0.0083 J-0.0201
G3 X20.7574 Y6.0779 I0.046 J-0.0677
G3 X20.7476 Y6.066 I0.0579 J-0.0579
G3 X20.7455 Y6.0621 I0.018 J-0.0122
G3 X20.7442 Y6.0579 I0.0201 J-0.0083
G3 X20.7428 Y6.0426 I0.0804 J-0.0153
G3 X20.7442 Y6.0272 I0.0819 J0
G3 X20.7455 Y6.023 I0.0214 J0.0041
G3 X20.7476 Y6.0191 I0.0201 J0.0083
G3 X20.7574 Y6.0072 I0.0677 J0.046
G3 X20.7693 Y5.9974 I0.0579 J0.0579
G3 X20.7732 Y5.9953 I0.0122 J0.018
G3 X20.7774 Y5.994 I0.0083 J0.0201
G3 X20.7928 Y5.9926 I0.0153 J0.0804
G3 X20.8081 Y5.994 I0 J0.0819
G3 X20.8124 Y5.9953 I-0.0041 J0.0214
G3 X20.8163 Y5.9974 I-0.0083 J0.0201
G3 X20.8281 Y6.0072 I-0.046 J0.0677
G3 X20.8379 Y6.0191 I-0.0579 J0.0579
G3 X20.8401 Y6.023 I-0.018 J0.0122
G3 X20.8413 Y6.0272 I-0.0201 J0.0083
G3 X20.8428 Y6.0426 I-0.0804 J0.0153
G3 X20.8413 Y6.0579 I-0.0819 J0
G3 X20.8401 Y6.0621 I-0.0214 J-0.0041
G3 X20.8379 Y6.066 I-0.0201 J-0.0083
G3 X20.8281 Y6.0779 I-0.0677 J-0.046
G3 X20.8163 Y6.0877 I-0.0579 J-0.0579
G3 X20.8124 Y6.0898 I-0.0122 J-0.018
G3 X20.8081 Y6.0911 I-0.0083 J-0.0201
G1 X20.8268 Y6.1893 F10
G3 X20.7928 Y6.1926 I-0.0341 J-0.1786 F10
G3 X20.7587 Y6.1893 I0 J-0.1819
G3 X20.7349 Y6.1822 I0.0228 J-0.1196
G3 X20.7131 Y6.1704 I0.0466 J-0.1125
G3 X20.6867 Y6.1486 I0.1022 J-0.1504
G3 X20.6649 Y6.1223 I0.1286 J-0.1286
G3 X20.6531 Y6.1004 I0.1007 J-0.0684
G3 X20.646 Y6.0766 I0.1125 J-0.0466
G3 X20.6428 Y6.0426 I0.1786 J-0.0341
G3 X20.646 Y6.0085 I0.1819 J0
G3 X20.6531 Y5.9847 I0.1196 J0.0228
G3 X20.6649 Y5.9629 I0.1125 J0.0466
G3 X20.6867 Y5.9365 I0.1504 J0.1022
G3 X20.7131 Y5.9147 I0.1286 J0.1286
G3 X20.7349 Y5.9029 I0.0684 J0.1007
G3 X20.7587 Y5.8958 I0.0466 J0.1125
G3 X20.7928 Y5.8926 I0.0341 J0.1786
G3 X20.8268 Y5.8958 I0 J0.1819
G3 X20.8506 Y5.9029 I-0.0228 J0.1196
G3 X20.8725 Y5.9147 I-0.0466 J0.1125
G3 X20.8988 Y5.9365 I-0.1022 J0.1504
G3 X20.9207 Y5.9629 I-0.1286 J0.1286
G3 X20.9324 Y5.9847 I-0.1007 J0.0684
G3 X20.9395 Y6.0085 I-0.1125 J0.0466
G3 X20.9428 Y6.0426 I-0.1786 J0.0341
G3 X20.9395 Y6.0766 I-0.1819 J0
G3 X20.9324 Y6.1004 I-0.1196 J-0.0228
G3 X20.9207 Y6.1223 I-0.1125 J-0.0466
G3 X20.8988 Y6.1486 I-0.1504 J-0.1022
G3 X20.8725 Y6.1704 I-0.1286 J-0.1286
G3 X20.8506 Y6.1822 I-0.0684 J-0.1007
G3 X20.8268 Y6.1893 I-0.0466 J-0.1125
G1 X20.8456 Y6.2876 F10
G3 X20.7928 Y6.2926 I-0.0528 J-0.2769 F10
G3 X20.74 Y6.2876 I0 J-0.2819
G3 X20.6966 Y6.2746 I0.0415 J-0.2178
G3 X20.6569 Y6.2531 I0.0849 J-0.2049
G3 X20.616 Y6.2193 I0.1584 J-0.2331
G3 X20.5822 Y6.1785 I0.1993 J-0.1993
G3 X20.5607 Y6.1387 I0.1834 J-0.1246
G3 X20.5478 Y6.0954 I0.2049 J-0.0849
G3 X20.5428 Y6.0426 I0.2769 J-0.0528
G3 X20.5478 Y5.9897 I0.2819 J0
G3 X20.5607 Y5.9464 I0.2178 J0.0415
G3 X20.5822 Y5.9067 I0.2049 J0.0849
G3 X20.616 Y5.8658 I0.2331 J0.1584
G3 X20.6569 Y5.832 I0.1993 J0.1993
G3 X20.6966 Y5.8105 I0.1246 J0.1834
G3 X20.74 Y5.7976 I0.0849 J0.2049
G3 X20.7928 Y5.7926 I0.0528 J0.2769
G3 X20.8456 Y5.7976 I0 J0.2819
G3 X20.8889 Y5.8105 I-0.0415 J0.2178
G3 X20.9287 Y5.832 I-0.0849 J0.2049
G3 X20.9695 Y5.8658 I-0.1584 J0.2331
G3 X21.0034 Y5.9067 I-0.1993 J0.1993
G3 X21.0248 Y5.9464 I-0.1834 J0.1246
G3 X21.0378 Y5.9897 I-0.2049 J0.0849
G3 X21.0428 Y6.0426 I-0.2769 J0.0528
G3 X21.0378 Y6.0954 I-0.2819 J0
G3 X21.0248 Y6.1387 I-0.2178 J-0.0415
G3 X21.0034 Y6.1785 I-0.2049 J-0.0849
G3 X20.9695 Y6.2193 I-0.2331 J-0.1584
G3 X20.9287 Y6.2531 I-0.1993 J-0.1993
G3 X20.8889 Y6.2746 I-0.1246 J-0.1834
G3 X20.8456 Y6.2876 I-0.0849 J-0.2049
G0 Z0.5
G0 X6.2952 Y6.0911
G1 Z-0.25 F30
G3 X6.2798 Y6.0926 I-0.0153 J-0.0804 F10
G3 X6.2645 Y6.0911 I0 J-0.0819
G3 X6.2602 Y6.0898 I0.0041 J-0.0214
G3 X6.2563 Y6.0877 I0.0083 J-0.0201
G3 X6.2445 Y6.0779 I0.046 J-0.0677
G3 X6.2346 Y6.066 I0.0579 J-0.0579
G3 X6.2325 Y6.0621 I0.018 J-0.0122
G3 X6.2313 Y6.0579 I0.0201 J-0.0083
G3 X6.2298 Y6.0426 I0.0804 J-0.0153
G3 X6.2313 Y6.0272 I0.0819 J0
G3 X6.2325 Y6.023 I0.0214 J0.0041
G3 X6.2346 Y6.0191 I0.0201 J0.0083
G3 X6.2445 Y6.0072 I0.0677 J0.046
G3 X6.2563 Y5.9974 I0.0579 J0.0579
G3 X6.2602 Y5.9953 I0.0122 J0.018
G3 X6.2645 Y5.994 I0.0083 J0.0201
G3 X6.2798 Y5.9926 I0.0153 J0.0804
G3 X6.2952 Y5.994 I0 J0.0819
G3 X6.2994 Y5.9953 I-0.0041 J0.0214
G3 X6.3033 Y5.9974 I-0.0083 J0.0201
G3 X6.3152 Y6.0072 I-0.046 J0.0677
G3 X6.325 Y6.0191 I-0.0579 J0.0579
G3 X6.3271 Y6.023 I-0.018 J0.0122
G3 X6.3284 Y6.0272 I-0.0201 J0.0083
G3 X6.3298 Y6.0426 I-0.0804 J0.0153
G3 X6.3284 Y6.0579 I-0.0819 J0
G3 X6.3271 Y6.0621 I-0.0214 J-0.0041
G3 X6.325 Y6.066 I-0.0201 J-0.0083
G3 X6.3152 Y6.0779 I-0.0677 J-0.046
G3 X6.3033 Y6.0877 I-0.0579 J-0.0579
G3 X6.2994 Y6.0898 I-0.0122 J-0.018
G3 X6.2952 Y6.0911 I-0.0083 J-0.0201
G1 X6.3139 Y6.1893 F10
G3 X6.2798 Y6.1926 I-0.0341 J-0.1786 F10
G3 X6.2457 Y6.1893 I0 J-0.1819
G3 X6.222 Y6.1822 I0.0228 J-0.1196
G3 X6.2001 Y6.1704 I0.0466 J-0.1125
G3 X6.1738 Y6.1486 I0.1022 J-0.1504
G3 X6.1519 Y6.1223 I0.1286 J-0.1286
G3 X6.1402 Y6.1004 I0.1007 J-0.0684
G3 X6.133 Y6.0766 I0.1125 J-0.0466
G3 X6.1298 Y6.0426 I0.1786 J-0.0341
G3 X6.133 Y6.0085 I0.1819 J0
G3 X6.1402 Y5.9847 I0.1196 J0.0228
G3 X6.1519 Y5.9629 I0.1125 J0.0466
G3 X6.1738 Y5.9365 I0.1504 J0.1022
G3 X6.2001 Y5.9147 I0.1286 J0.1286
G3 X6.222 Y5.9029 I0.0684 J0.1007
G3 X6.2457 Y5.8958 I0.0466 J0.1125
G3 X6.2798 Y5.8926 I0.0341 J0.1786
G3 X6.3139 Y5.8958 I0 J0.1819
G3 X6.3377 Y5.9029 I-0.0228 J0.1196
G3 X6.3595 Y5.9147 I-0.0466 J0.1125
G3 X6.3859 Y5.9365 I-0.1022 J0.1504
G3 X6.4077 Y5.9629 I-0.1286 J0.1286
G3 X6.4195 Y5.9847 I-0.1007 J0.0684
G3 X6.4266 Y6.0085 I-0.1125 J0.0466
G3 X6.4298 Y6.0426 I-0.1786 J0.0341
G3 X6.4266 Y6.0766 I-0.1819 J0
G3 X6.4195 Y6.1004 I-0.1196 J-0.0228
G3 X6.4077 Y6.1223 I-0.1125 J-0.0466
G3 X6.3859 Y6.1486 I-0.1504 J-0.1022
G3 X6.3595 Y6.1704 I-0.1286 J-0.1286
G3 X6.3377 Y6.1822 I-0.0684 J-0.1007
G3 X6.3139 Y6.1893 I-0.0466 J-0.1125
G1 X6.3326 Y6.2876 F10
G3 X6.2798 Y6.2926 I-0.0528 J-0.2769 F10
G3 X6.227 Y6.2876 I0 J-0.2819
G3 X6.1837 Y6.2746 I0.0415 J-0.2178
G3 X6.1439 Y6.2531 I0.0849 J-0.2049
G3 X6.103 Y6.2193 I0.1584 J-0.2331
G3 X6.0692 Y6.1785 I0.1993 J-0.1993
G3 X6.0478 Y6.1387 I0.1834 J-0.1246
G3 X6.0348 Y6.0954 I0.2049 J-0.0849
G3 X6.0298 Y6.0426 I0.2769 J-0.0528
G3 X6.0348 Y5.9897 I0.2819 J0
G3 X6.0478 Y5.9464 I0.2178 J0.0415
G3 X6.0692 Y5.9067 I0.2049 J0.0849
G3 X6.103 Y5.8658 I0.2331 J0.1584
G3 X6.1439 Y5.832 I0.1993 J0.1993
G3 X6.1837 Y5.8105 I0.1246 J0.1834
G3 X6.227 Y5.7976 I0.0849 J0.2049
G3 X6.2798 Y5.7926 I0.0528 J0.2769
G3 X6.3326 Y5.7976 I0 J0.2819
G3 X6.3759 Y5.8105 I-0.0415 J0.2178
G3 X6.4157 Y5.832 I-0.0849 J0.2049
G3 X6.4566 Y5.8658 I-0.1584 J0.2331
G3 X6.4904 Y5.9067 I-0.1993 J0.1993
G3 X6.5119 Y5.9464 I-0.1834 J0.1246
G3 X6.5248 Y5.9897 I-0.2049 J0.0849
G3 X6.5298 Y6.0426 I-0.2769 J0.0528
G3 X6.5248 Y6.0954 I-0.2819 J0
G3 X6.5119 Y6.1387 I-0.2178 J-0.0415
G3 X6.4904 Y6.1785 I-0.2049 J-0.0849
G3 X6.4566 Y6.2193 I-0.2331 J-0.1584
G3 X6.4157 Y6.2531 I-0.1993 J-0.1993
G3 X6.3759 Y6.2746 I-0.1246 J-0.1834
G3 X6.3326 Y6.2876 I-0.0849 J-0.2049
G0 Z0.5
G0 X9.5753 Y2.6784
G1 Z-0.25 F30
G3 X9.5851 Y2.6665 I0.0677 J0.046 F10
G3 X9.597 Y2.6567 I0.0579 J0.0579
G3 X9.6009 Y2.6546 I0.0122 J0.018
G3 X9.6051 Y2.6533 I0.0083 J0.0201
G3 X9.6205 Y2.6519 I0.0153 J0.0804
G3 X9.6358 Y2.6533 I0 J0.0819
G3 X9.6401 Y2.6546 I-0.0041 J0.0214
G3 X9.644 Y2.6567 I-0.0083 J0.0201
G3 X9.6558 Y2.6665 I-0.046 J0.0677
G3 X9.6657 Y2.6784 I-0.0579 J0.0579
G3 X9.6678 Y2.6823 I-0.018 J0.0122
G3 X9.669 Y2.6866 I-0.0201 J0.0083
G3 X9.6705 Y2.7019 I-0.0804 J0.0153
G3 X9.669 Y2.7172 I-0.0819 J0
G3 X9.6678 Y2.7215 I-0.0214 J-0.0041
G3 X9.6657 Y2.7254 I-0.0201 J-0.0083
G3 X9.6558 Y2.7373 I-0.0677 J-0.046
G3 X9.644 Y2.7471 I-0.0579 J-0.0579
G3 X9.6401 Y2.7492 I-0.0122 J-0.018
G3 X9.6358 Y2.7504 I-0.0083 J-0.0201
G3 X9.6205 Y2.7519 I-0.0153 J-0.0804
G3 X9.6051 Y2.7504 I0 J-0.0819
G3 X9.6009 Y2.7492 I0.0041 J-0.0214
G3 X9.597 Y2.7471 I0.0083 J-0.0201
G3 X9.5851 Y2.7373 I0.046 J-0.0677
G3 X9.5753 Y2.7254 I0.0579 J-0.0579
G3 X9.5732 Y2.7215 I0.018 J-0.0122
G3 X9.5719 Y2.7172 I0.0201 J-0.0083
G3 X9.5705 Y2.7019 I0.0804 J-0.0153
G3 X9.5719 Y2.6866 I0.0819 J0
G3 X9.5732 Y2.6823 I0.0214 J0.0041
G3 X9.5753 Y2.6784 I0.0201 J0.0083
G1 X9.4926 Y2.6222 F10
G3 X9.5144 Y2.5958 I0.1504 J0.1022 F10
G3 X9.5408 Y2.574 I0.1286 J0.1286
G3 X9.5626 Y2.5622 I0.0684 J0.1007
G3 X9.5864 Y2.5551 I0.0466 J0.1125
G3 X9.6205 Y2.5519 I0.0341 J0.1786
G3 X9.6546 Y2.5551 I0 J0.1819
G3 X9.6783 Y2.5622 I-0.0228 J0.1196
G3 X9.7002 Y2.574 I-0.0466 J0.1125
G3 X9.7265 Y2.5958 I-0.1022 J0.1504
G3 X9.7484 Y2.6222 I-0.1286 J0.1286
G3 X9.7602 Y2.644 I-0.1007 J0.0684
G3 X9.7673 Y2.6678 I-0.1125 J0.0466
G3 X9.7705 Y2.7019 I-0.1786 J0.0341
G3 X9.7673 Y2.736 I-0.1819 J0
G3 X9.7602 Y2.7597 I-0.1196 J-0.0228
G3 X9.7484 Y2.7816 I-0.1125 J-0.0466
G3 X9.7265 Y2.808 I-0.1504 J-0.1022
G3 X9.7002 Y2.8298 I-0.1286 J-0.1286
G3 X9.6783 Y2.8416 I-0.0684 J-0.1007
G3 X9.6546 Y2.8487 I-0.0466 J-0.1125
G3 X9.6205 Y2.8519 I-0.0341 J-0.1786
G3 X9.5864 Y2.8487 I0 J-0.1819
G3 X9.5626 Y2.8416 I0.0228 J-0.1196
